; generated by Slic3r 1.2.9 on 2017-02-06 at 21:10:20

; external perimeters extrusion width = 0.40mm
; perimeters extrusion width = 0.68mm
; infill extrusion width = 1.28mm
; solid infill extrusion width = 0.68mm
; top infill extrusion width = 0.68mm
; support material extrusion width = 0.40mm

M107
G28 ; home all axes
G29
G1 Z5 F5000 ; lift Z
G21 ; set units to millimeters
G90 ; use absolute coordinates
M82 ; use absolute distances for extrusion
G92 E0
G1 Z0.200 F8400.000
G1 E-3.00000 F2400.00000
G92 E0
G1 Z0.400 F8400.000
G1 X52.053 Y52.128 F8400.000
G1 Z0.200 F8400.000
G1 E3.00000 F2400.00000
G1 X52.903 Y51.345 E3.13187 F1800.000
G1 X53.753 Y50.686 E3.25467
G1 X54.724 Y50.060 E3.38654
G1 X55.675 Y49.557 E3.50930
G1 X56.739 Y49.106 E3.64118
G1 X57.762 Y48.774 E3.76397
G1 X58.888 Y48.512 E3.89583
G1 X59.953 Y48.360 E4.01868
G1 X60.903 Y48.293 E4.12735
G1 X139.170 Y48.297 E13.05974
G1 X140.194 Y48.376 E13.17693 F1800.000
G1 X141.257 Y48.540 E13.29971
G1 X142.380 Y48.814 E13.43161
G1 X143.400 Y49.158 E13.55448
G1 X144.458 Y49.620 E13.68630
G1 X145.404 Y50.134 E13.80909
G1 X146.368 Y50.771 E13.94098
G1 X147.212 Y51.440 E14.06389
G1 X148.052 Y52.232 E14.19568
G1 X148.768 Y53.036 E14.31848
G1 X149.460 Y53.961 E14.45036
G1 X150.028 Y54.875 E14.57315
G1 X150.551 Y55.905 E14.70505
G1 X150.954 Y56.904 E14.82796
G1 X151.292 Y58.008 E14.95974
G1 X151.518 Y59.060 E15.08253
G1 X151.662 Y60.207 E15.21443
G1 X151.709 Y61.543 E15.36702
G1 X151.706 Y139.096 E24.21796
G1 X151.638 Y140.046 E24.32664
G1 X151.486 Y141.111 E24.44946
G1 X151.225 Y142.236 E24.58129
G1 X150.892 Y143.261 E24.70426
G1 X150.442 Y144.324 E24.83593
G1 X149.939 Y145.274 E24.95870
G1 X149.312 Y146.246 E25.09060
G1 X148.654 Y147.096 E25.21337
G1 X147.870 Y147.945 E25.34524
G1 X147.075 Y148.670 E25.46801
G1 X146.158 Y149.373 E25.59990
G1 X145.249 Y149.952 E25.72285
G1 X144.226 Y150.485 E25.85455
G1 X143.233 Y150.899 E25.97732
G1 X142.132 Y151.250 E26.10921
G1 X141.083 Y151.488 E26.23198
G1 X139.938 Y151.645 E26.36385
G1 X138.864 Y151.699 E26.48661
G1 X61.547 Y151.704 E35.31062
G1 X60.211 Y151.657 E35.46316
G1 X59.064 Y151.513 E35.59505
G1 X58.011 Y151.288 E35.71797
G1 X56.907 Y150.949 E35.84975
G1 X55.910 Y150.546 E35.97254
G1 X54.879 Y150.023 E36.10443
G1 X53.965 Y149.455 E36.22726
G1 X53.040 Y148.763 E36.35912
G1 X52.237 Y148.047 E36.48191
G1 X51.444 Y147.207 E36.61381
G1 X50.775 Y146.364 E36.73659
G1 X50.138 Y145.399 E36.86850
G1 X49.624 Y144.454 E36.99130
G1 X49.162 Y143.395 E37.12319
G1 X48.818 Y142.375 E37.24597
G1 X48.544 Y141.253 E37.37787
G1 X48.380 Y140.189 E37.50074
G1 X48.301 Y139.166 E37.61779
G1 X48.291 Y61.473 E46.48475
G1 X48.354 Y60.060 E46.64614
G1 X48.511 Y58.916 E46.77796
G1 X48.748 Y57.866 E46.90073
G1 X49.099 Y56.765 E47.03261
G1 X49.513 Y55.772 E47.15546
G1 X50.048 Y54.748 E47.28727
G1 X50.626 Y53.840 E47.41010
G1 X51.328 Y52.923 E47.54188
G1 X52.013 Y52.173 E47.65785
G1 F6720
G1 X52.903 Y51.345 E47.24552
G1 F6720
G1 X53.753 Y50.686 E46.88046
G1 F6720
G1 X54.724 Y50.060 E46.48844
G1 F6720
G1 X55.675 Y49.557 E46.12347
G1 F6720
G1 X56.739 Y49.106 E45.73142
G1 F6720
G1 X57.762 Y48.774 E45.36638
G1 F6720
G1 X58.888 Y48.512 E44.97437
G1 F6720
G1 X59.374 Y48.443 E44.80785
G1 E44.65785 F2400.00000
G92 E0
G1 Z0.400 F8400.000
G1 X82.824 Y115.972 F8400.000
G1 Z0.200 F8400.000
G1 E3.00000 F2400.00000
G1 X82.883 Y116.200 E3.02689 F1800.000
G1 X82.901 Y116.418 E3.05184
G1 X82.901 Y120.693 E3.53976
G1 X82.884 Y120.911 E3.56477
G1 X82.766 Y121.282 E3.60917
G1 X82.637 Y121.499 E3.63794
G1 X82.503 Y121.656 E3.66156
G1 X65.132 Y139.027 E6.46523
G1 X65.074 Y139.526 E6.52261
G1 X64.882 Y140.176 E6.59988
G1 X64.580 Y140.782 E6.67716
G1 X64.179 Y141.327 E6.75443
G1 X63.689 Y141.794 E6.83171
G1 X63.125 Y142.169 E6.90898
G1 X62.505 Y142.442 E6.98626
G1 X61.848 Y142.603 E7.06354
G1 X61.172 Y142.648 E7.14081
G1 X60.499 Y142.575 E7.21809
G1 X59.848 Y142.388 E7.29536
G1 X59.240 Y142.090 E7.37264
G1 X58.692 Y141.692 E7.44991
G1 X58.222 Y141.205 E7.52719
G1 X57.842 Y140.644 E7.60446
G1 X57.566 Y140.026 E7.68174
G1 X57.400 Y139.370 E7.75902
G1 X57.355 Y138.758 E7.82900
G1 X57.417 Y138.024 E7.91311
G1 X57.601 Y137.369 E7.99075
G1 X57.895 Y136.759 E8.06802
G1 X58.289 Y136.208 E8.14530
G1 X58.773 Y135.734 E8.22257
G1 X59.331 Y135.351 E8.29985
G1 X59.947 Y135.070 E8.37713
G1 X60.540 Y134.916 E8.44711
G1 X61.093 Y134.863 E8.51049
G1 X80.523 Y115.433 E11.64654
G1 X80.691 Y115.292 E11.67149
G1 X80.893 Y115.172 E11.69838
G1 X81.114 Y115.088 E11.72527
G1 X81.345 Y115.042 E11.75215
G1 X81.560 Y115.036 E11.77677 F1800.000
G1 X81.810 Y115.067 E11.80555
G1 X82.038 Y115.140 E11.83279
G1 X82.247 Y115.248 E11.85967
G1 X82.435 Y115.390 E11.88656
G1 X82.597 Y115.561 E11.91344
G1 X82.728 Y115.757 E11.94033
G1 X82.800 Y115.917 E11.96037
G1 X83.054 Y116.022 F8400.000
G1 X83.601 Y116.397 F8400.000
G1 X83.601 Y111.097 E12.56525 F1800.000
G1 X90.401 Y111.097 E13.34131
G1 X90.401 Y116.397 E13.94619
G1 X83.661 Y116.397 E14.71541
G1 X83.201 Y116.397 F8400.000
G1 X84.330 Y117.825 F8400.000
G1 X91.533 Y117.825 E15.53749 F1800.000
G1 X91.626 Y117.954 E15.55563
G1 X92.020 Y118.290 E15.61465
G1 X92.618 Y118.657 E15.69476
G1 X92.530 Y118.969 E15.73178
G1 X86.966 Y118.969 E16.36677
G1 X84.257 Y121.678 E16.80410
G1 X84.330 Y120.749 E16.91050
G1 X84.330 Y117.885 E17.23731
G1 X82.173 Y113.673 F8400.000
G1 X81.630 Y113.605 E17.29983 F1800.000
G1 X81.184 Y113.618 E17.35070
G1 X80.594 Y113.735 E17.41936
G1 X80.444 Y113.455 E17.45563
G1 X82.173 Y111.726 E17.73468
G1 X82.173 Y113.613 E17.95011
G1 X84.032 Y109.669 F8400.000
G1 X84.415 Y108.679 E18.07123 F1800.000
G1 X84.115 Y107.756 E18.18199
G1 X83.895 Y107.335 E18.23615
G1 X83.608 Y106.957 E18.29031
G1 X82.936 Y106.325 E18.39561
G1 X88.778 Y106.325 E19.06233
G1 X88.707 Y106.770 E19.11376
G1 X88.710 Y107.241 E19.16746
G1 X88.792 Y107.704 E19.22116
G1 X88.924 Y108.076 E19.26615
G1 X89.641 Y109.669 E19.46554
G1 X84.092 Y109.669 E20.09886
G1 X89.379 Y105.238 F8400.000
G1 X90.865 Y105.034 F8400.000
G1 X91.492 Y104.983 F8400.000
G1 X108.511 Y104.983 F8400.000
G1 X109.041 Y105.025 F8400.000
G1 X110.749 Y105.436 F8400.000
G1 X111.501 Y106.561 F8400.000
G1 X112.785 Y107.911 F8400.000
G1 X114.051 Y107.997 F8400.000
G1 X114.324 Y108.361 F8400.000
G1 X115.737 Y109.592 F8400.000
G1 X115.446 Y109.192 F8400.000
G1 X115.924 Y109.669 E20.17589 F1800.000
G1 X110.362 Y109.669 E20.81067
G1 X111.079 Y108.076 E21.01006
G1 X111.211 Y107.704 E21.05506
G1 X111.292 Y107.241 E21.10875
G1 X111.296 Y106.771 E21.16245
G1 X111.225 Y106.325 E21.21388
G1 X117.028 Y106.325 E21.87612
G1 X116.333 Y107.005 E21.98703
G1 X116.048 Y107.401 E22.04266
G1 X115.835 Y107.839 E22.09827
G1 X115.463 Y109.134 E22.25206
G1 X117.830 Y111.575 F8400.000
G1 X120.064 Y113.809 E22.61270 F1800.000
G1 X119.876 Y114.100 E22.65226
G1 X119.286 Y113.875 E22.72427
G1 X118.805 Y113.779 E22.78025
G1 X118.312 Y113.773 E22.83654
G1 X117.830 Y113.841 E22.89212
G1 X117.830 Y111.635 E23.14393
G1 X115.673 Y117.825 F8400.000
G1 X115.673 Y120.972 E23.50302 F1800.000
G1 X115.742 Y121.406 E23.55320
G1 X115.465 Y121.548 E23.58873
G1 X112.886 Y118.969 E24.00493
G1 X107.454 Y118.969 E24.62484
G1 X107.397 Y118.607 E24.66661
G1 X107.612 Y118.538 E24.69241
G1 X108.334 Y118.013 E24.79422
G1 X108.470 Y117.825 E24.82070
G1 X115.613 Y117.825 E25.63594
G1 X108.887 Y117.111 F8400.000
G1 X116.387 Y117.111 E26.49189 F1800.000
G1 X116.387 Y120.916 E26.92607
G1 X116.471 Y121.442 E26.98684
G1 X116.632 Y121.830 E27.03485
G1 X116.945 Y122.261 E27.09561
G1 X134.218 Y139.534 E29.88356
G1 X134.273 Y139.874 E29.92283
G1 X134.538 Y140.640 E30.01532
G1 X134.968 Y141.386 E30.11364
G1 X135.429 Y141.955 E30.19718
G1 X136.034 Y142.481 E30.28866
G1 X136.720 Y142.895 E30.38014
G1 X137.468 Y143.184 E30.47162
G1 X138.254 Y143.339 E30.56310
G1 X139.056 Y143.355 E30.65458
G1 X139.848 Y143.233 E30.74605
G1 X140.607 Y142.976 E30.83754
G1 X141.310 Y142.592 E30.92902
G1 X141.937 Y142.091 E31.02050
G1 X142.467 Y141.490 E31.11197
G1 X142.885 Y140.807 E31.20346
G1 X143.182 Y140.053 E31.29594
G1 X143.341 Y139.206 E31.39426
G1 X143.362 Y138.474 E31.47780
G1 X143.245 Y137.681 E31.56928
G1 X142.993 Y136.920 E31.66076
G1 X142.613 Y136.214 E31.75224
G1 X142.117 Y135.585 E31.84372
G1 X141.520 Y135.051 E31.93520
G1 X140.839 Y134.628 E32.02668
G1 X140.095 Y134.329 E32.11816
G1 X139.311 Y134.163 E32.20964
G1 X139.046 Y134.154 E32.23993
G1 X119.963 Y115.071 E35.31987
G1 X119.727 Y114.872 E35.35513
G1 X119.420 Y114.691 E35.39577
G1 X119.088 Y114.564 E35.43641
G1 X118.730 Y114.493 E35.47802
G1 X118.358 Y114.488 E35.52055
G1 X118.030 Y114.534 E35.55829
G1 X117.691 Y114.642 E35.59893
G1 X117.116 Y114.939 E35.67283
G1 X117.116 Y110.383 E36.19285
G1 X109.257 Y110.383 E37.08978
G1 X110.416 Y107.810 E37.41191
G1 X110.518 Y107.522 E37.44673
G1 X110.579 Y107.176 E37.48685
G1 X110.582 Y106.824 E37.52697
G1 X110.526 Y106.477 E37.56710
G1 X110.414 Y106.144 E37.60722
G1 X110.248 Y105.834 E37.64734
G1 X110.034 Y105.555 E37.68746
G1 X109.770 Y105.311 E37.72855
G1 X109.456 Y105.111 E37.77102
G1 X110.252 Y104.705 E37.87304
G1 X110.723 Y104.234 E37.94903
G1 X111.059 Y103.575 E38.03343
G1 X111.387 Y103.654 E38.07198
G1 X111.387 Y105.611 E38.29535
G1 X117.344 Y105.611 E38.97522
G1 X117.538 Y105.750 E39.00239
G1 X118.166 Y105.955 E39.07786
G1 X120.387 Y105.963 E39.33132
G1 X120.387 Y106.739 E39.41988
G1 X118.435 Y106.739 E39.64272
G1 X118.120 Y106.767 E39.67879
G1 X117.768 Y106.860 E39.72034
G1 X117.437 Y107.011 E39.76190
G1 X117.137 Y107.218 E39.80346
G1 X116.877 Y107.472 E39.84501
G1 X116.664 Y107.768 E39.88657
G1 X116.505 Y108.095 E39.92813
G1 X116.249 Y108.984 E40.03368
G1 X142.266 Y135.000 E44.23275
G1 X142.887 Y135.709 E44.34035
G1 X143.347 Y136.464 E44.44115
G1 X143.671 Y137.285 E44.54195
G1 X143.848 Y138.151 E44.64276
G1 X143.875 Y139.033 E44.74356
G1 X143.750 Y139.908 E44.84436
G1 X143.477 Y140.748 E44.94516
G1 X143.064 Y141.528 E45.04596
G1 X142.523 Y142.227 E45.14676
G1 X141.871 Y142.822 E45.24756
G1 X141.126 Y143.297 E45.34836
G1 X140.311 Y143.636 E45.44916
G1 X139.449 Y143.831 E45.54996
G1 X138.567 Y143.876 E45.65076
G1 X137.690 Y143.768 E45.75156
G1 X136.845 Y143.512 E45.85236
G1 X136.056 Y143.114 E45.95316
G1 X135.328 Y142.573 E46.05677
G1 X135.039 Y142.294 E46.10251
G1 X134.736 Y141.948 E46.15506
G1 X134.417 Y141.510 E46.21693
G1 X112.590 Y119.683 E49.73979
G1 X87.262 Y119.683 E52.63041
G1 X65.813 Y141.132 E56.09235
G1 X65.305 Y141.896 E56.19700
G1 X64.699 Y142.548 E56.29858
G1 X63.996 Y143.083 E56.39939
G1 X63.212 Y143.490 E56.50021
G1 X62.370 Y143.756 E56.60102
G1 X61.494 Y143.873 E56.70184
G1 X60.611 Y143.839 E56.80265
G1 X59.748 Y143.654 E56.90347
G1 X58.929 Y143.323 E57.00428
G1 X58.178 Y142.857 E57.10510
G1 X57.519 Y142.269 E57.20591
G1 X56.970 Y141.577 E57.30672
G1 X56.548 Y140.800 E57.40754
G1 X56.266 Y139.963 E57.50836
G1 X56.131 Y139.090 E57.60917
G1 X56.148 Y138.207 E57.70998
G1 X56.316 Y137.340 E57.81080
G1 X56.631 Y136.515 E57.91161
G1 X57.082 Y135.755 E58.01243
G1 X57.656 Y135.086 E58.11309
G1 X58.478 Y134.411 E58.23442
G1 X83.051 Y109.838 E62.20057
G1 X83.358 Y109.431 E62.25876
G1 X83.657 Y108.658 E62.35330
G1 X83.454 Y108.033 E62.42826
G1 X83.290 Y107.719 E62.46872
G1 X83.076 Y107.437 E62.50919
G1 X82.817 Y107.194 E62.54965
G1 X82.522 Y106.998 E62.59012
G1 X82.198 Y106.853 E62.63058
G1 X81.855 Y106.765 E62.67105
G1 X81.548 Y106.739 E62.70616
G1 X79.616 Y106.739 E62.92672
G1 X79.616 Y105.968 E63.01479
G1 X81.589 Y105.968 E63.24002
G1 X82.159 Y105.878 E63.30587
G1 X82.682 Y105.611 E63.37280
G1 X88.616 Y105.611 E64.05004
G1 X88.616 Y103.612 E64.27822
G1 X88.977 Y103.555 E64.31999
G1 X89.105 Y103.949 E64.36736
G1 X89.475 Y104.459 E64.43918
G1 X89.813 Y104.739 E64.48922
G1 X90.544 Y105.108 E64.58274
G1 X90.220 Y105.321 E64.62707
G1 X89.954 Y105.575 E64.66907
G1 X89.754 Y105.834 E64.70633
G1 X89.589 Y106.144 E64.74645
G1 X89.477 Y106.477 E64.78658
G1 X89.421 Y106.824 E64.82670
G1 X89.424 Y107.176 E64.86683
G1 X89.485 Y107.522 E64.90695
G1 X89.587 Y107.810 E64.94176
G1 X90.746 Y110.383 E65.26389
G1 X82.887 Y110.383 E66.16083
G1 X82.887 Y114.775 E66.66205
G1 X82.312 Y114.478 E66.73595
G1 X81.965 Y114.367 E66.77757
G1 X81.595 Y114.320 E66.82010
G1 X81.264 Y114.330 E66.85784
G1 X80.915 Y114.399 E66.89847
G1 X80.582 Y114.526 E66.93911
G1 X80.276 Y114.707 E66.97975
G1 X80.040 Y114.906 E67.01501
G1 X60.770 Y134.177 E70.12522
G1 X60.416 Y134.211 E70.16580
G1 X59.707 Y134.395 E70.24933
G1 X58.978 Y134.727 E70.34081
G1 X58.317 Y135.181 E70.43228
G1 X57.745 Y135.742 E70.52376
G1 X57.278 Y136.393 E70.61523
G1 X56.931 Y137.116 E70.70670
G1 X56.711 Y137.896 E70.79919
G1 X56.639 Y138.754 E70.89750
G1 X56.692 Y139.484 E70.98103
G1 X56.888 Y140.261 E71.07251
G1 X57.216 Y140.993 E71.16398
G1 X57.665 Y141.657 E71.25546
G1 X58.222 Y142.233 E71.34693
G1 X58.870 Y142.704 E71.43841
G1 X59.590 Y143.056 E71.52988
G1 X60.360 Y143.279 E71.62135
G1 X61.157 Y143.365 E71.71283
G1 X61.957 Y143.311 E71.80430
G1 X62.736 Y143.121 E71.89578
G1 X63.469 Y142.798 E71.98725
G1 X64.136 Y142.354 E72.07872
G1 X64.716 Y141.801 E72.17020
G1 X65.192 Y141.156 E72.26167
G1 X65.549 Y140.438 E72.35315
G1 X65.777 Y139.670 E72.44462
G1 X65.813 Y139.356 E72.48067
G1 X83.027 Y122.141 E75.25911
G1 X83.220 Y121.916 E75.29293
G1 X83.421 Y121.577 E75.33793
G1 X83.590 Y121.050 E75.40104
G1 X83.616 Y120.721 E75.43872
G1 X83.616 Y117.111 E75.85068
G1 X91.116 Y117.111 E76.70664
G1 X91.116 Y111.993 E77.29080
G1 X91.437 Y111.910 E77.32868
G1 X91.569 Y112.148 E77.35971
G1 X91.784 Y112.420 E77.39928
G1 X92.040 Y112.653 E77.43886
G1 X92.332 Y112.841 E77.47844
G1 X92.778 Y113.035 E77.53402
G1 X92.181 Y113.469 E77.61834
G1 X91.789 Y114.008 E77.69432
G1 X91.597 Y114.599 E77.76522
G1 X91.571 Y114.930 E77.80318
G1 X91.571 Y116.041 E77.92991
G1 X91.597 Y116.372 E77.96787
G1 X91.789 Y116.963 E78.03877
G1 X92.154 Y117.466 E78.10966
G1 X92.441 Y117.710 E78.15263
G1 X92.762 Y117.907 E78.19559
G1 X93.352 Y118.099 E78.26643
G1 X106.361 Y118.111 E79.75108
G1 X106.693 Y118.085 E79.78910
G1 X107.284 Y117.893 E79.86000
G1 X107.822 Y117.502 E79.93598
G1 X108.214 Y116.963 E80.01197
G1 X108.418 Y116.336 E80.08727
G1 X108.433 Y114.892 E80.25202
G1 X108.341 Y114.317 E80.31854
G1 X108.056 Y113.756 E80.39036
G1 X107.766 Y113.427 E80.44041
G1 X107.224 Y113.036 E80.51674
G1 X107.671 Y112.841 E80.57246
G1 X107.963 Y112.653 E80.61204
G1 X108.219 Y112.420 E80.65161
G1 X108.434 Y112.148 E80.69119
G1 X108.566 Y111.910 E80.72221
G1 X108.887 Y111.993 E80.76010
G1 X108.887 Y117.051 E81.33741
G1 X107.123 Y112.301 F8400.000
G1 X106.900 Y112.357 E81.36360 F1800.000
G1 X106.688 Y112.374 E81.38790
G1 X93.315 Y112.374 E82.91407
G1 X93.103 Y112.357 E82.93837
G1 X92.880 Y112.301 E82.96456
G1 X92.670 Y112.209 E82.99075
G1 X92.477 Y112.085 E83.01693
G1 X92.307 Y111.931 E83.04312
G1 X92.165 Y111.751 E83.06931
G1 X92.062 Y111.564 E83.09362
G1 X90.250 Y107.543 E83.59695
G1 X90.178 Y107.340 E83.62159
G1 X90.138 Y107.111 E83.64814
G1 X90.136 Y106.878 E83.67469
G1 X90.173 Y106.648 E83.70124
G1 X90.247 Y106.428 E83.72778
G1 X90.356 Y106.223 E83.75433
G1 X90.486 Y106.054 E83.77864
G1 X90.666 Y105.882 E83.80706
G1 X90.863 Y105.753 E83.83395
G1 X91.076 Y105.659 E83.86050
G1 X91.302 Y105.601 E83.88705
G1 X91.517 Y105.583 E83.91169
G1 X108.486 Y105.583 E85.84837 F1800.000
G1 X108.701 Y105.601 E85.87301
G1 X108.927 Y105.659 E85.89956
G1 X109.122 Y105.745 E85.92387
G1 X109.332 Y105.878 E85.95229
G1 X109.505 Y106.039 E85.97918
G1 X109.647 Y106.223 E86.00573
G1 X109.756 Y106.428 E86.03227
G1 X109.830 Y106.648 E86.05882
G1 X109.867 Y106.878 E86.08537
