; generated by Slic3r 1.2.9 on 2017-02-05 at 14:26:29

; external perimeters extrusion width = 0.40mm
; perimeters extrusion width = 0.67mm
; infill extrusion width = 0.67mm
; solid infill extrusion width = 0.67mm
; top infill extrusion width = 0.67mm
; support material extrusion width = 0.40mm

M107
G28 ; home all axes
G29
G1 Z5 F5000 ; lift Z
G21 ; set units to millimeters
G90 ; use absolute coordinates
M82 ; use absolute distances for extrusion
G92 E0
G1 Z0.300 F8400.000
G1 E-4.00000 F2400.00000
G92 E0
G1 Z0.500 F8400.000
G1 X52.512 Y38.509 F8400.000
G1 Z0.300 F8400.000
G1 E4.00000 F2400.00000
G1 X53.253 Y37.629 E4.12985 F1800.000
G1 X53.914 Y36.968 E4.23528
G1 X54.795 Y36.227 E4.36513
G1 X55.547 Y35.698 E4.46891
G1 X56.553 Y35.110 E4.60038
G1 X57.398 Y34.710 E4.70579
G1 X58.477 Y34.309 E4.83565
G1 X59.377 Y34.060 E4.94106
G1 X60.508 Y33.849 E5.07091
G1 X61.439 Y33.757 E5.17637
G1 X62.099 Y33.724 E5.25098
G1 X139.740 Y33.724 E14.01096
G1 X140.403 Y33.757 E14.08583 F1800.000
G1 X141.332 Y33.849 E14.19124
G1 X142.464 Y34.061 E14.32109
G1 X143.365 Y34.310 E14.42659
G1 X144.443 Y34.712 E14.55637
G1 X145.287 Y35.111 E14.66178
G1 X146.281 Y35.691 E14.79162
G1 X147.045 Y36.229 E14.89703
G1 X147.926 Y36.970 E15.02689
G1 X148.587 Y37.632 E15.13241
G1 X149.327 Y38.512 E15.26216
G1 X149.865 Y39.275 E15.36757
G1 X150.445 Y40.270 E15.49742
G1 X150.845 Y41.114 E15.60283
G1 X151.246 Y42.193 E15.73269
G1 X151.496 Y43.093 E15.83811
G1 X151.707 Y44.224 E15.96796
G1 X151.800 Y45.155 E16.07346
G1 X151.831 Y45.696 E16.13459
G1 X152.255 Y69.245 E18.79200
G1 X152.254 Y100.026 E22.26495
G1 X151.831 Y123.578 E24.92266
G1 X151.800 Y124.119 E24.98376
G1 X151.708 Y125.049 E25.08921
G1 X151.497 Y126.180 E25.21902
G1 X151.251 Y127.068 E25.32301
G1 X150.846 Y128.159 E25.45428
G1 X150.447 Y129.003 E25.55969
G1 X149.867 Y129.998 E25.68954
G1 X149.329 Y130.762 E25.79495
G1 X124.199 Y163.640 E30.46400
G1 X122.502 Y165.205 E30.72451
G1 X120.375 Y166.104 E30.98502
G1 X118.865 Y166.276 E31.15648
G1 X81.865 Y166.276 E35.33108
G1 X79.591 Y165.879 E35.59159
G1 X77.585 Y164.735 E35.85211
G1 X76.444 Y163.523 E36.03992
G1 X52.578 Y130.858 E40.60428
G1 X51.972 Y130.000 E40.72281
G1 X51.392 Y129.006 E40.85259
G1 X50.993 Y128.162 E40.95802
G1 X50.591 Y127.083 E41.08786
G1 X50.341 Y126.183 E41.19327
G1 X50.130 Y125.052 E41.32313
G1 X47.775 Y100.102 E44.15065
G1 X47.745 Y99.472 E44.22179
G1 X47.745 Y68.811 E47.68116
G1 X47.777 Y68.154 E47.75534
G1 X50.131 Y44.221 E50.46870
G1 X50.342 Y43.090 E50.59855
G1 X50.588 Y42.203 E50.70233
G1 X50.994 Y41.111 E50.83381
G1 X51.394 Y40.267 E50.93922
G1 X51.974 Y39.273 E51.06907
G1 X52.478 Y38.558 E51.16771
G1 E47.16771 F2400.00000
G92 E0
G1 Z0.500 F8400.000
G1 X83.725 Y97.730 F8400.000
G1 Z0.300 F8400.000
G1 E4.00000 F2400.00000
G1 X83.697 Y105.961 E4.92869 F1800.000
G1 X70.300 Y119.357 E7.06619
G1 X66.199 Y115.256 E7.72058
G1 X83.683 Y97.773 E10.51028
G1 X84.112 Y97.628 F8400.000
G1 X85.019 Y96.238 F8400.000
G1 X91.819 Y96.238 E11.27750 F1800.000
G1 X91.819 Y101.038 E11.81907
G1 X85.019 Y101.038 E12.58629
G1 X85.019 Y96.298 E13.12109
G1 X85.019 Y95.838 F8400.000
G1 X90.284 Y90.224 F8400.000
G1 X111.553 Y90.224 E15.52080 F1800.000
G1 X108.493 Y97.015 E16.36117
G1 X93.344 Y97.015 E18.07039
G1 X90.309 Y90.279 E18.90400
G1 X90.228 Y89.828 F8400.000
G1 X89.805 Y89.510 F8400.000
G1 X89.033 Y89.510 E18.99107 F1800.000
G1 X89.033 Y81.738 E19.86792
G1 X89.805 Y81.738 E19.95499
G1 X89.805 Y89.450 E20.82508
G1 X90.519 Y89.024 F8400.000
G1 X90.519 Y82.224 E21.59230 F1800.000
G1 X111.319 Y82.224 E23.93910
G1 X111.319 Y89.024 E24.70632
G1 X90.579 Y89.024 E27.04635
G1 X90.119 Y89.024 F8400.000
G1 X88.319 Y89.038 F8400.000
G1 X85.019 Y89.038 E27.41867 F1800.000
G1 X85.019 Y80.238 E28.41155
G1 X88.319 Y80.238 E28.78387
G1 X88.319 Y88.978 E29.76998
G1 X88.319 Y89.438 F8400.000
G1 X90.264 Y81.024 F8400.000
G1 X93.345 Y74.259 E30.60875 F1800.000
G1 X108.493 Y74.259 E32.31786
G1 X111.537 Y81.024 E33.15489
G1 X90.324 Y81.024 E35.54832
G1 X89.880 Y80.912 F8400.000
G1 X93.203 Y73.059 F8400.000
G1 X93.203 Y66.259 E36.31554 F1800.000
G1 X108.635 Y66.259 E38.05669
G1 X108.635 Y73.059 E38.82391
G1 X93.263 Y73.059 E40.55829
G1 X92.803 Y73.059 F8400.000
G1 X93.203 Y65.059 F8400.000
G1 X93.203 Y60.259 E41.09985 F1800.000
G1 X108.635 Y60.259 E42.84100
G1 X108.635 Y65.059 E43.38257
G1 X93.263 Y65.059 E45.11695
G1 X92.803 Y65.059 F8400.000
G1 X91.819 Y68.238 F8400.000
G1 X91.819 Y73.038 E45.65852 F1800.000
G1 X85.019 Y73.038 E46.42574
G1 X85.019 Y68.238 E46.96730
G1 X91.759 Y68.238 E47.72775
G1 X92.219 Y68.238 F8400.000
G1 E43.72775 F2400.00000
G92 E0
G1 Z0.500 F8400.000
G1 X84.419 Y71.715 F8400.000
G1 X84.419 Y71.715 F8400.000
G1 X83.819 Y71.639 F8400.000
G1 Z0.300 F8400.000
G1 E4.00000 F2400.00000
G1 X66.199 Y54.020 E6.81143 F1800.000
G1 X70.300 Y49.918 E7.46583
G1 X83.848 Y63.466 E9.62755
G1 X83.819 Y71.579 E10.54293
G1 X83.619 Y71.986 F8400.000
G1 X85.961 Y75.180 F8400.000
G1 X90.571 Y75.180 E11.06307 F1800.000
G1 X89.244 Y78.095 E11.42447
G1 X85.961 Y78.095 E11.79483
G1 X85.961 Y75.240 E12.11696
G1 X84.660 Y74.466 F8400.000
G1 X91.681 Y74.466 E12.90918 F1800.000
G1 X89.703 Y78.810 E13.44766
G1 X85.247 Y78.810 E13.95043
G1 X85.247 Y75.054 E14.37422
G1 X84.702 Y74.509 E14.46116
G1 X92.510 Y73.659 F8400.000
G1 X92.511 Y67.638 F8400.000
G1 X90.623 Y65.659 F8400.000
G1 X88.437 Y63.648 F8400.000
G1 X84.433 Y67.638 F8400.000
G1 X85.981 Y66.095 F8400.000
G1 X85.994 Y62.582 E14.85757 F1800.000
G1 X84.613 Y61.201 E15.07792
G1 X91.060 Y61.201 E15.80534
G1 X91.060 Y66.095 E16.35756
G1 X86.041 Y66.095 E16.92382
G1 X85.265 Y66.810 F8400.000
G1 X85.279 Y62.877 E17.36755 F1800.000
G1 X82.889 Y60.487 E17.74889
G1 X91.774 Y60.487 E18.75141
G1 X91.774 Y66.810 E19.46478
G1 X85.325 Y66.810 E20.19248
G1 X85.924 Y61.744 F8400.000
G1 X82.778 Y60.302 F8400.000
G1 X70.730 Y48.641 F8400.000
G1 X69.470 Y48.239 F8400.000
G1 X68.941 Y48.248 F8400.000
G1 X64.582 Y52.607 E20.88802 F1800.000
G1 X60.281 Y48.111 E21.59006
G1 X59.914 Y47.711 E21.65125
G1 X59.628 Y47.281 E21.70954
G1 X59.427 Y46.827 E21.76559
G1 X59.307 Y46.345 E21.82164
G1 X59.271 Y45.849 E21.87769
G1 X59.320 Y45.355 E21.93374
G1 X59.453 Y44.876 E21.98980
G1 X59.666 Y44.427 E22.04585
G1 X59.952 Y44.021 E22.10190
G1 X60.303 Y43.670 E22.15796
G1 X60.709 Y43.384 E22.21401
G1 X61.159 Y43.172 E22.27006
G1 X61.637 Y43.039 E22.32611
G1 X62.132 Y42.990 E22.38216
G1 X62.616 Y43.025 E22.43697
G1 X63.112 Y43.148 E22.49462
G1 X63.564 Y43.348 E22.55030
G1 X64.026 Y43.656 E22.61303
G1 X64.193 Y43.800 E22.63791
G1 X68.898 Y48.207 E23.36519
G1 X69.968 Y48.231 F8400.000
G1 X64.571 Y53.628 E24.22635 F1800.000
G1 X59.760 Y48.599 E25.01157
G1 X59.350 Y48.154 E25.07986
G1 X58.999 Y47.626 E25.15138
G1 X58.749 Y47.059 E25.22130
G1 X58.599 Y46.458 E25.29121
G1 X58.554 Y45.840 E25.36113
G1 X58.615 Y45.223 E25.43105
G1 X58.781 Y44.626 E25.50096
G1 X59.047 Y44.066 E25.57088
G1 X59.404 Y43.560 E25.64079
G1 X59.842 Y43.121 E25.71071
G1 X60.349 Y42.765 E25.78063
G1 X60.909 Y42.500 E25.85054
G1 X61.506 Y42.334 E25.92046
G1 X62.123 Y42.273 E25.99037
G1 X62.729 Y42.318 E26.05894
G1 X63.344 Y42.470 E26.13045
G1 X63.909 Y42.719 E26.20010
G1 X64.460 Y43.086 E26.27482
G1 X64.671 Y43.269 E26.30635
G1 X69.924 Y48.190 E27.11846
G1 X70.300 Y48.908 F8400.000
G1 X65.189 Y54.020 E27.93401 F1800.000
G1 X84.305 Y73.135 E30.98407
G1 X84.305 Y73.752 E31.05370
G1 X92.489 Y73.752 E31.97707
G1 X92.489 Y73.773 E31.97941
G1 X92.782 Y73.773 E32.01251
G1 X89.371 Y81.263 E32.94114
G1 X89.033 Y81.190 E32.98012
G1 X89.033 Y79.524 E33.16809
G1 X84.533 Y79.524 E33.67582
G1 X84.533 Y78.892 E33.74713
G1 X80.533 Y78.892 E34.19844
G1 X80.533 Y78.120 E34.28551
G1 X84.533 Y78.120 E34.73682
G1 X84.533 Y75.349 E35.04942
G1 X80.610 Y71.426 E35.67542
G1 X59.239 Y49.088 E39.16339
G1 X58.787 Y48.596 E39.23878
G1 X58.371 Y47.971 E39.32354
G1 X58.071 Y47.291 E39.40732
G1 X57.891 Y46.571 E39.49110
G1 X57.837 Y45.830 E39.57488
G1 X57.911 Y45.091 E39.65866
G1 X58.110 Y44.376 E39.74244
G1 X58.427 Y43.705 E39.82622
G1 X58.855 Y43.098 E39.91000
G1 X59.380 Y42.573 E39.99378
G1 X59.988 Y42.145 E40.07756
G1 X60.659 Y41.828 E40.16134
G1 X61.374 Y41.630 E40.24511
G1 X62.113 Y41.557 E40.32889
G1 X62.841 Y41.610 E40.41122
G1 X63.576 Y41.791 E40.49659
G1 X64.254 Y42.091 E40.58021
G1 X64.893 Y42.517 E40.66692
G1 X65.149 Y42.738 E40.70509
G1 X83.335 Y59.773 E43.51653
G1 X92.489 Y59.773 E44.54926
G1 X92.489 Y67.524 E45.42379
G1 X84.548 Y67.524 E46.31970
G1 X84.564 Y63.172 E46.81075
G1 X70.343 Y48.951 E49.07982
G1 X82.778 Y60.302 F8400.000
G1 X90.623 Y65.659 F8400.000
G1 X109.235 Y65.659 F8400.000
G1 X109.419 Y67.454 F8400.000
G1 X109.419 Y67.638 F8400.000
G1 X110.019 Y68.238 F8400.000
G1 X116.819 Y68.238 E49.84704 F1800.000
G1 X116.819 Y73.038 E50.38861
G1 X110.019 Y73.038 E51.15583
G1 X110.019 Y68.298 E51.69063
G1 X110.019 Y67.838 F8400.000
G1 X109.419 Y73.638 F8400.000
G1 X109.419 Y73.638 F8400.000
G1 X109.419 Y73.991 F8400.000
G1 X111.257 Y75.180 F8400.000
G1 X115.876 Y75.180 E52.21175 F1800.000
G1 X115.876 Y78.095 E52.54065
G1 X112.569 Y78.095 E52.91380
G1 X111.282 Y75.235 E53.26768
G1 X110.153 Y74.466 F8400.000
G1 X117.027 Y74.466 E54.04324 F1800.000
G1 X116.590 Y74.903 E54.11288
G1 X116.590 Y78.810 E54.55369
G1 X112.107 Y78.810 E55.05952
G1 X110.178 Y74.521 E55.59011
G1 X109.328 Y73.659 F8400.000
G1 X109.327 Y67.638 F8400.000
G1 X109.419 Y67.454 F8400.000
G1 X111.214 Y65.659 F8400.000
G1 X110.777 Y66.095 F8400.000
G1 X110.777 Y61.201 E56.14233 F1800.000
G1 X117.224 Y61.201 E56.86975
G1 X116.002 Y62.424 E57.06489
G1 X115.989 Y66.095 E57.47913
G1 X110.837 Y66.095 E58.06036
G1 X110.063 Y66.810 F8400.000
G1 X110.063 Y60.487 E58.77373 F1800.000
G1 X118.949 Y60.487 E59.77625
G1 X116.715 Y62.721 E60.13270
G1 X116.700 Y66.810 E60.59403
G1 X110.123 Y66.810 E61.33613
G1 X132.916 Y48.267 F8400.000
G1 X137.619 Y43.825 E62.06607 F1800.000
G1 X137.817 Y43.652 E62.09566
G1 X138.275 Y43.347 E62.15777
G1 X138.729 Y43.146 E62.21383
G1 X139.211 Y43.026 E62.26988
G1 X139.707 Y42.990 E62.32593
G1 X140.201 Y43.039 E62.38198
G1 X140.680 Y43.172 E62.43803
G1 X141.129 Y43.384 E62.49409
G1 X141.535 Y43.671 E62.55014
G1 X141.886 Y44.022 E62.60619
G1 X142.172 Y44.428 E62.66224
G1 X142.385 Y44.877 E62.71830
G1 X142.518 Y45.356 E62.77435
G1 X142.567 Y45.850 E62.83040
G1 X142.531 Y46.346 E62.88645
G1 X142.410 Y46.828 E62.94250
G1 X142.210 Y47.282 E62.99856
G1 X141.925 Y47.709 E63.05645
G1 X137.241 Y52.593 E63.81992
G1 X132.958 Y48.310 E64.50337
G1 X131.891 Y48.253 F8400.000
G1 X137.139 Y43.296 E65.31781 F1800.000
G1 X137.382 Y43.084 E65.35423
G1 X137.930 Y42.719 E65.42850
G1 X138.497 Y42.468 E65.49842
G1 X139.098 Y42.318 E65.56833
G1 X139.716 Y42.273 E65.63825
G1 X140.333 Y42.334 E65.70816
G1 X140.930 Y42.500 E65.77808
G1 X141.490 Y42.765 E65.84800
G1 X141.996 Y43.122 E65.91791
G1 X142.435 Y43.560 E65.98783
G1 X142.791 Y44.067 E66.05774
G1 X143.057 Y44.627 E66.12766
G1 X143.222 Y45.224 E66.19757
G1 X143.283 Y45.841 E66.26749
G1 X143.238 Y46.459 E66.33741
G1 X143.088 Y47.060 E66.40732
G1 X142.838 Y47.627 E66.47724
G1 X142.488 Y48.152 E66.54848
G1 X142.058 Y48.617 E66.61983
G1 X137.251 Y53.613 E67.40210
G1 X131.934 Y48.295 E68.25059
G1 X131.537 Y48.908 F8400.000
G1 X117.428 Y63.018 E70.50188 F1800.000
G1 X117.412 Y67.524 E71.01029
G1 X109.349 Y67.524 E71.92003
G1 X109.349 Y59.773 E72.79456
G1 X118.656 Y59.773 E73.84461
G1 X136.659 Y42.767 E76.63876
G1 X136.947 Y42.515 E76.68201
G1 X137.585 Y42.090 E76.76844
G1 X138.264 Y41.790 E76.85222
G1 X138.985 Y41.611 E76.93600
G1 X139.725 Y41.557 E77.01978
G1 X140.464 Y41.630 E77.10356
G1 X141.180 Y41.828 E77.18734
G1 X141.851 Y42.146 E77.27112
G1 X142.458 Y42.574 E77.35490
G1 X142.983 Y43.099 E77.43868
G1 X143.411 Y43.706 E77.52246
G1 X143.728 Y44.377 E77.60624
G1 X143.927 Y45.092 E77.69002
G1 X144.000 Y45.831 E77.77379
G1 X143.946 Y46.572 E77.85757
G1 X143.766 Y47.292 E77.94135
G1 X143.466 Y47.972 E78.02513
G1 X143.051 Y48.596 E78.10972
G1 X142.578 Y49.107 E78.18828
G1 X121.774 Y70.729 E81.57376
G1 X117.305 Y75.199 E82.28686
G1 X117.305 Y78.120 E82.61647
G1 X121.305 Y78.120 E83.06778
G1 X121.305 Y78.892 E83.15485
G1 X117.305 Y78.892 E83.60616
G1 X117.305 Y79.524 E83.67748
G1 X112.805 Y79.524 E84.18520
G1 X112.805 Y81.275 E84.38279
G1 X112.466 Y81.348 E84.42186
G1 X109.058 Y73.773 E85.35904
G1 X109.349 Y73.773 E85.39187
G1 X109.349 Y73.752 E85.39420
G1 X117.533 Y73.752 E86.31758
G1 X117.533 Y73.135 E86.38720
G1 X136.648 Y54.020 E89.43727
G1 X131.579 Y48.951 E90.24605
G1 X119.178 Y60.260 F8400.000
G1 X113.594 Y63.692 F8400.000
G1 X117.472 Y67.638 F8400.000
G1 X117.463 Y72.999 F8400.000
G1 X118.085 Y73.638 F8400.000
G1 X115.787 Y78.006 F8400.000
G1 X116.787 Y79.006 F8400.000
G1 X117.419 Y79.638 F8400.000
G1 X117.419 Y79.638 F8400.000
G1 X116.819 Y80.238 F8400.000
G1 X116.819 Y89.038 E91.23892 F1800.000
G1 X113.519 Y89.038 E91.61125
G1 X113.519 Y80.238 E92.60412
G1 X116.759 Y80.238 E92.96968
G1 X117.219 Y80.238 F8400.000
G1 X112.919 Y79.638 F8400.000
G1 X112.276 Y79.638 F8400.000
G1 X112.682 Y81.527 F8400.000
G1 X112.805 Y81.738 F8400.000
G1 X112.805 Y89.510 E93.84653 F1800.000
G1 X112.033 Y89.510 E93.93360
G1 X112.033 Y81.738 E94.81046
G1 X112.745 Y81.738 E94.89076
G1 X110.019 Y96.238 F8400.000
G1 X116.819 Y96.238 E95.65798 F1800.000
G1 X116.819 Y101.038 E96.19955
G1 X110.019 Y101.038 E96.96677
G1 X110.019 Y96.298 E97.50157
G1 X110.019 Y95.838 F8400.000
G1 E93.50157 F2400.00000
G92 E0
G1 Z0.500 F8400.000
G1 X117.419 Y97.561 F8400.000
G1 X117.419 Y97.561 F8400.000
G1 X118.018 Y97.636 F8400.000
G1 Z0.300 F8400.000
G1 E4.00000 F2400.00000
G1 X135.638 Y115.256 E6.81143 F1800.000
G1 X131.537 Y119.357 E7.46583
G1 X117.989 Y105.810 E9.62755
G1 X118.018 Y97.696 E10.54292
G1 X118.219 Y97.290 F8400.000
G1 X117.419 Y97.561 F8400.000
G1 X117.421 Y96.193 F8400.000
G1 X118.274 Y95.834 F8400.000
G1 X137.262 Y116.032 F8400.000
G1 X132.328 Y120.997 F8400.000
G1 X113.460 Y103.038 F8400.000
G1 X109.419 Y101.822 F8400.000
G1 X109.327 Y97.615 F8400.000
G1 X109.235 Y97.615 F8400.000
G1 X108.635 Y98.215 F8400.000
G1 X108.635 Y102.038 E10.97426 F1800.000
G1 X93.203 Y102.038 E12.71541
G1 X93.203 Y98.215 E13.14674
G1 X108.575 Y98.215 E14.88112
G1 X109.035 Y98.215 F8400.000
G1 E10.88112 F2400.00000
G92 E0
G1 Z0.500 F8400.000
G1 X92.603 Y102.638 F8400.000
G1 X86.273 Y103.607 F8400.000
G1 X84.837 Y106.749 F8400.000
G1 X70.696 Y120.602 F8400.000
G1 X69.526 Y120.980 F8400.000
G1 X68.880 Y120.967 F8400.000
G1 Z0.300 F8400.000
G1 E4.00000 F2400.00000
G1 X63.973 Y125.656 E4.76577 F1800.000
G1 X63.563 Y125.929 E4.82135
G1 X63.108 Y126.130 E4.87740
G1 X62.626 Y126.250 E4.93346
G1 X62.131 Y126.286 E4.98951
G1 X61.637 Y126.237 E5.04556
G1 X61.158 Y126.104 E5.10161
G1 X60.719 Y125.896 E5.15642
G1 X60.300 Y125.603 E5.21407
G1 X59.951 Y125.254 E5.26975
G1 X59.665 Y124.848 E5.32580
G1 X59.453 Y124.399 E5.38185
G1 X59.320 Y123.920 E5.43790
G1 X59.271 Y123.426 E5.49396
G1 X59.307 Y122.930 E5.55001
G1 X59.427 Y122.448 E5.60606
G1 X59.628 Y121.994 E5.66211
G1 X59.912 Y121.567 E5.72001
G1 X64.596 Y116.683 E6.48348
G1 X68.838 Y120.925 E7.16034
G1 X69.902 Y120.979 F8400.000
G1 X64.421 Y126.215 E8.01561 F1800.000
G1 X63.908 Y126.557 E8.08519
G1 X63.341 Y126.808 E8.15510
G1 X62.740 Y126.958 E8.22502
G1 X62.122 Y127.003 E8.29494
G1 X61.505 Y126.941 E8.36485
G1 X60.908 Y126.776 E8.43477
G1 X60.359 Y126.516 E8.50333
G1 X59.839 Y126.152 E8.57484
G1 X59.403 Y125.716 E8.64449
G1 X59.046 Y125.209 E8.71441
G1 X58.781 Y124.649 E8.78432
G1 X58.615 Y124.052 E8.85424
G1 X58.554 Y123.435 E8.92415
