; generated by Slic3r 1.2.9 on 2017-02-04 at 23:35:19

; external perimeters extrusion width = 0.40mm
; perimeters extrusion width = 0.68mm
; infill extrusion width = 1.28mm
; solid infill extrusion width = 0.68mm
; top infill extrusion width = 0.68mm
; support material extrusion width = 0.40mm

M107
G28 ; home all axes
G29
G1 Z5 F5000 ; lift Z
G21 ; set units to millimeters
G90 ; use absolute coordinates
M82 ; use absolute distances for extrusion
G92 E0
G1 Z0.300 F8400.000
G1 E-4.00000 F2400.00000
G92 E0
G1 Z0.500 F8400.000
G1 X51.410 Y36.871 F8400.000
G1 Z0.300 F8400.000
G1 E4.00000 F2400.00000
G1 X52.152 Y35.991 E4.12985 F1800.000
G1 X52.813 Y35.330 E4.23528
G1 X53.693 Y34.589 E4.36513
G1 X54.446 Y34.060 E4.46891
G1 X55.452 Y33.472 E4.60038
G1 X56.296 Y33.073 E4.70579
G1 X57.375 Y32.671 E4.83565
G1 X58.275 Y32.422 E4.94106
G1 X59.407 Y32.211 E5.07091
G1 X60.337 Y32.119 E5.17637
G1 X60.997 Y32.086 E5.25098
G1 X138.638 Y32.086 E14.01096
G1 X139.301 Y32.119 E14.08583 F1800.000
G1 X140.231 Y32.211 E14.19124
G1 X141.362 Y32.423 E14.32109
G1 X142.263 Y32.673 E14.42659
G1 X143.341 Y33.074 E14.55637
G1 X144.185 Y33.474 E14.66178
G1 X145.180 Y34.053 E14.79162
G1 X145.943 Y34.591 E14.89703
G1 X146.824 Y35.333 E15.02689
G1 X147.485 Y35.994 E15.13241
G1 X148.226 Y36.874 E15.26216
G1 X148.764 Y37.638 E15.36757
G1 X149.343 Y38.632 E15.49742
G1 X149.743 Y39.476 E15.60283
G1 X150.145 Y40.555 E15.73269
G1 X150.394 Y41.455 E15.83811
G1 X150.606 Y42.586 E15.96796
G1 X150.724 Y43.874 E16.11378
G1 X151.783 Y67.298 E18.75943
G1 X151.783 Y97.959 E22.21880
G1 X150.724 Y122.116 E24.94691
G1 X150.606 Y123.411 E25.09366
G1 X150.395 Y124.542 E25.22346
G1 X150.145 Y125.444 E25.32907
G1 X149.745 Y126.521 E25.45873
G1 X149.345 Y127.365 E25.56414
G1 X148.766 Y128.360 E25.69399
G1 X148.094 Y129.307 E25.82500
G1 X123.262 Y162.156 E30.47108
G1 X121.573 Y163.731 E30.73159
G1 X119.074 Y164.719 E31.03481
G1 X101.574 Y167.811 E33.03987
G1 X100.406 Y167.914 E33.17219
G1 X98.406 Y167.914 E33.39785
G1 X97.237 Y167.811 E33.53017
G1 X79.737 Y164.719 E35.53523
G1 X77.567 Y163.932 E35.79575
G1 X75.485 Y162.069 E36.11092
G1 X51.477 Y129.221 E40.70146
G1 X50.870 Y128.362 E40.82012
G1 X50.291 Y127.368 E40.94990
G1 X49.891 Y126.524 E41.05533
G1 X49.489 Y125.445 E41.18517
G1 X49.240 Y124.545 E41.29058
G1 X49.028 Y123.414 E41.42044
G1 X48.906 Y122.018 E41.57851
G1 X48.220 Y98.594 E44.22248
G1 X48.220 Y67.541 E47.72611
G1 X48.906 Y43.982 E50.38535
G1 X49.029 Y42.583 E50.54377
G1 X49.241 Y41.452 E50.67362
G1 X49.487 Y40.565 E50.77741
G1 X49.892 Y39.473 E50.90889
G1 X50.292 Y38.629 E51.01429
G1 X50.872 Y37.635 E51.14415
G1 X51.376 Y36.920 E51.24278
G1 E47.24278 F2400.00000
G92 E0
G1 Z0.500 F8400.000
G1 X82.624 Y96.092 F8400.000
G1 Z0.300 F8400.000
G1 E4.00000 F2400.00000
G1 X82.595 Y104.323 E4.92869 F1800.000
G1 X69.199 Y117.720 E7.06620
G1 X65.098 Y113.618 E7.72059
G1 X82.581 Y96.135 E10.51029
G1 X83.010 Y95.990 F8400.000
G1 X83.917 Y94.600 F8400.000
G1 X90.717 Y94.600 E11.27751 F1800.000
G1 X90.717 Y99.400 E11.81908
G1 X83.917 Y99.400 E12.58630
G1 X83.917 Y94.660 E13.12110
G1 X83.917 Y94.200 F8400.000
G1 X63.484 Y114.025 F8400.000
G1 X68.800 Y119.341 E13.96931 F1800.000
G1 X63.319 Y124.577 E14.82459
G1 X62.806 Y124.919 E14.89416
G1 X62.239 Y125.170 E14.96408
G1 X61.638 Y125.320 E15.03399
G1 X61.020 Y125.365 E15.10391
G1 X60.403 Y125.303 E15.17383
G1 X59.806 Y125.138 E15.24374
G1 X59.257 Y124.878 E15.31230
G1 X58.738 Y124.514 E15.38382
G1 X58.301 Y124.078 E15.45347
G1 X57.944 Y123.571 E15.52338
G1 X57.679 Y123.011 E15.59330
G1 X57.514 Y122.414 E15.66321
G1 X57.452 Y121.797 E15.73313
G1 X57.497 Y121.179 E15.80305
G1 X57.647 Y120.578 E15.87296
G1 X57.898 Y120.011 E15.94288
G1 X58.248 Y119.486 E16.01411
G1 X63.443 Y114.068 E16.86095
G1 X68.424 Y119.342 F8400.000
G1 X82.547 Y106.299 F8400.000
G1 X83.735 Y105.111 F8400.000
G1 X84.089 Y104.571 F8400.000
G1 X84.022 Y104.732 F8400.000
G1 X84.035 Y100.828 E17.30136 F1800.000
G1 X90.673 Y100.828 E18.05023
G1 X90.673 Y101.972 E18.17923
G1 X86.782 Y101.972 E18.61823
G1 X84.064 Y104.689 E19.05185
G1 X83.549 Y93.172 F8400.000
G1 X84.145 Y92.551 E19.14898 F1800.000
G1 X84.145 Y88.828 E19.56903
G1 X87.725 Y88.828 E19.97291
G1 X89.682 Y93.172 E20.51042
G1 X83.609 Y93.172 E21.19569
G1 X88.317 Y87.486 F8400.000
G1 X88.817 Y87.986 F8400.000
G1 X110.817 Y87.986 F8400.000
G1 X111.317 Y87.486 F8400.000
G1 X111.596 Y88.083 F8400.000
G1 X113.313 Y91.000 F8400.000
G1 X108.670 Y94.000 F8400.000
G1 X109.952 Y93.172 F8400.000
G1 X111.909 Y88.828 E21.73319 F1800.000
G1 X115.489 Y88.828 E22.13707
G1 X115.489 Y92.398 E22.53977
G1 X116.229 Y93.172 E22.66065
G1 X110.012 Y93.172 E23.36214
G1 X111.817 Y88.686 F8400.000
G1 X111.317 Y87.486 F8400.000
G1 X110.817 Y87.986 F8400.000
G1 X88.817 Y87.986 F8400.000
G1 X88.317 Y87.486 F8400.000
G1 X86.317 Y91.000 F8400.000
G1 X82.599 Y94.000 F8400.000
G1 X83.273 Y94.639 F8400.000
G1 X83.317 Y100.108 F8400.000
G1 X90.159 Y101.400 F8400.000
G1 X108.133 Y101.900 F8400.000
G1 X108.133 Y101.000 F8400.000
G1 X109.133 Y101.000 F8400.000
G1 X108.961 Y100.828 F8400.000
G1 X115.471 Y100.828 E24.09661 F1800.000
G1 X115.457 Y104.727 E24.53653
G1 X112.701 Y101.972 E24.97622
G1 X108.961 Y101.972 E25.39820
G1 X108.961 Y100.888 E25.52043
G1 X130.816 Y119.359 F8400.000
G1 X136.165 Y114.010 E26.37389 F1800.000
G1 X140.976 Y119.039 E27.15913
G1 X141.384 Y119.483 E27.22714
G1 X141.736 Y120.010 E27.29869
G1 X141.986 Y120.577 E27.36861
G1 X142.136 Y121.178 E27.43853
G1 X142.182 Y121.796 E27.50844
G1 X142.121 Y122.413 E27.57836
G1 X141.958 Y122.999 E27.64692
G1 X141.689 Y123.572 E27.71843
G1 X141.334 Y124.077 E27.78808
G1 X140.895 Y124.515 E27.85799
G1 X140.389 Y124.872 E27.92791
G1 X139.829 Y125.138 E27.99783
G1 X139.232 Y125.303 E28.06774
G1 X138.615 Y125.365 E28.13766
G1 X137.997 Y125.320 E28.20757
G1 X137.396 Y125.170 E28.27749
G1 X136.829 Y124.920 E28.34740
G1 X136.313 Y124.576 E28.41729
G1 X130.860 Y119.400 E29.26567
G1 X130.435 Y118.730 F8400.000
G1 X135.547 Y113.618 E30.08122 F1800.000
G1 X116.431 Y94.503 E33.13128
G1 X116.431 Y93.886 E33.20091
G1 X108.847 Y93.886 E34.05664
G1 X111.448 Y88.114 E34.77090
G1 X116.203 Y88.114 E35.30742
G1 X116.203 Y88.971 E35.40406
G1 X120.203 Y88.971 E35.85537
G1 X120.203 Y89.742 E35.94243
G1 X116.203 Y89.742 E36.39374
G1 X116.203 Y92.111 E36.66098
G1 X141.497 Y118.550 E40.78930
G1 X141.947 Y119.040 E40.86439
G1 X142.364 Y119.665 E40.94917
G1 X142.664 Y120.344 E41.03295
G1 X142.844 Y121.065 E41.11673
G1 X142.898 Y121.805 E41.20051
G1 X142.825 Y122.544 E41.28428
G1 X142.631 Y123.248 E41.36661
G1 X142.309 Y123.932 E41.45198
G1 X141.882 Y124.538 E41.53560
G1 X141.357 Y125.064 E41.61938
G1 X140.750 Y125.491 E41.70316
G1 X140.079 Y125.809 E41.78694
G1 X139.364 Y126.008 E41.87072
G1 X138.625 Y126.081 E41.95450
G1 X137.884 Y126.028 E42.03827
G1 X137.164 Y125.848 E42.12205
G1 X136.484 Y125.548 E42.20583
G1 X135.866 Y125.137 E42.28959
G1 X116.017 Y106.297 E45.37729
G1 X112.406 Y102.686 E45.95351
G1 X87.078 Y102.686 E48.81119
G1 X83.001 Y106.763 E49.46172
G1 X63.767 Y125.137 E52.46286
G1 X63.151 Y125.548 E52.54644
G1 X62.472 Y125.848 E52.63021
G1 X61.751 Y126.027 E52.71399
G1 X61.010 Y126.081 E52.79777
G1 X60.272 Y126.008 E52.88155
G1 X59.556 Y125.810 E52.96533
G1 X58.897 Y125.498 E53.04765
G1 X58.277 Y125.063 E53.13303
G1 X57.753 Y124.539 E53.21665
G1 X57.325 Y123.932 E53.30043
G1 X57.007 Y123.261 E53.38420
G1 X56.809 Y122.546 E53.46798
G1 X56.736 Y121.807 E53.55176
G1 X56.790 Y121.066 E53.63554
G1 X56.969 Y120.346 E53.71932
G1 X57.269 Y119.666 E53.80310
G1 X57.685 Y119.042 E53.88768
G1 X58.158 Y118.531 E53.96624
G1 X83.431 Y92.264 E58.07899
G1 X83.431 Y89.742 E58.36345
G1 X79.431 Y89.742 E58.81476
G1 X79.431 Y88.971 E58.90182
G1 X83.431 Y88.971 E59.35313
G1 X83.431 Y88.114 E59.44977
G1 X88.187 Y88.114 E59.98629
G1 X90.787 Y93.886 E60.70055
G1 X83.203 Y93.886 E61.55627
G1 X83.203 Y94.503 E61.62590
G1 X64.088 Y113.618 E64.67597
G1 X69.199 Y118.730 E65.49152
G1 X83.308 Y104.620 E67.74281
G1 X83.324 Y100.114 E68.25121
G1 X91.387 Y100.114 E69.16095
G1 X91.387 Y101.114 E69.27378
G1 X108.247 Y101.114 E71.17609
G1 X108.247 Y100.114 E71.28891
G1 X116.188 Y100.114 E72.18482
G1 X116.172 Y104.466 E72.67587
G1 X130.393 Y118.687 E74.94494
G1 X115.329 Y104.416 F8400.000
G1 X112.358 Y101.400 F8400.000
G1 X109.133 Y101.000 F8400.000
G1 X108.133 Y101.000 F8400.000
G1 X107.533 Y100.400 F8400.000
G1 X92.101 Y100.400 E76.68609 F1800.000
G1 X92.101 Y96.577 E77.11743
G1 X107.533 Y96.577 E78.85858
G1 X107.533 Y100.340 E79.28315
G1 X107.533 Y100.800 F8400.000
G1 X107.392 Y95.377 F8400.000
G1 X92.243 Y95.377 E80.99237 F1800.000
G1 X89.183 Y88.586 E81.83274
G1 X110.452 Y88.586 E84.23246
G1 X107.416 Y95.322 E85.06607
G1 X107.335 Y95.773 F8400.000
G1 E81.06607 F2400.00000
G92 E0
G1 Z0.500 F8400.000
G1 X91.317 Y94.784 F8400.000
G1 X91.501 Y95.793 F8400.000
G1 X91.317 Y100.184 F8400.000
G1 X85.172 Y101.969 F8400.000
G1 X83.263 Y100.000 F8400.000
G1 X83.273 Y94.639 F8400.000
G1 X82.599 Y94.000 F8400.000
G1 X87.817 Y88.686 F8400.000
G1 X88.254 Y87.549 F8400.000
G1 X88.317 Y87.486 F8400.000
G1 X88.817 Y87.986 F8400.000
G1 X88.703 Y87.872 F8400.000
G1 Z0.300 F8400.000
G1 E4.00000 F2400.00000
G1 X87.931 Y87.872 E4.08707 F1800.000
G1 X87.931 Y80.100 E4.96392
G1 X88.703 Y80.100 E5.05099
G1 X88.703 Y87.812 E5.92107
G1 X89.417 Y87.386 F8400.000
G1 X89.417 Y80.586 E6.68830 F1800.000
G1 X110.217 Y80.586 E9.03510
G1 X110.217 Y87.386 E9.80232
G1 X89.477 Y87.386 E12.14235
G1 X89.017 Y87.386 F8400.000
G1 X87.217 Y87.400 F8400.000
G1 X83.917 Y87.400 E12.51468 F1800.000
G1 X83.917 Y78.600 E13.50756
G1 X87.217 Y78.600 E13.87988
G1 X87.217 Y87.340 E14.86599
G1 X87.217 Y87.800 F8400.000
G1 X89.162 Y79.386 F8400.000
G1 X92.244 Y72.621 E15.70477 F1800.000
G1 X107.392 Y72.621 E17.41388
G1 X110.436 Y79.386 E18.25091
G1 X89.222 Y79.386 E20.64434
G1 X88.779 Y79.274 F8400.000
G1 X92.101 Y71.421 F8400.000
G1 X92.101 Y64.621 E21.41156 F1800.000
G1 X107.533 Y64.621 E23.15271
G1 X107.533 Y71.421 E23.91994
G1 X92.161 Y71.421 E25.65432
G1 X91.701 Y71.421 F8400.000
G1 X92.101 Y63.421 F8400.000
G1 X92.101 Y58.621 E26.19589 F1800.000
G1 X107.533 Y58.621 E27.93704
G1 X107.533 Y63.421 E28.47861
G1 X92.161 Y63.421 E30.21299
G1 X91.701 Y63.421 F8400.000
G1 X90.717 Y66.600 F8400.000
G1 X90.717 Y71.400 E30.75456 F1800.000
G1 X83.917 Y71.400 E31.52178
G1 X83.917 Y66.600 E32.06335
G1 X90.657 Y66.600 E32.82380
G1 X91.117 Y66.600 F8400.000
G1 E28.82380 F2400.00000
G92 E0
G1 Z0.500 F8400.000
G1 X83.317 Y70.077 F8400.000
G1 X83.317 Y70.077 F8400.000
G1 X82.717 Y70.002 F8400.000
G1 Z0.300 F8400.000
G1 E4.00000 F2400.00000
G1 X65.098 Y52.382 E6.81144 F1800.000
G1 X69.199 Y48.281 E7.46583
G1 X82.747 Y61.828 E9.62756
G1 X82.718 Y69.942 E10.54294
G1 X82.517 Y70.348 F8400.000
G1 X83.558 Y72.828 F8400.000
G1 X90.580 Y72.828 E11.33515 F1800.000
G1 X88.602 Y77.172 E11.87363
G1 X84.145 Y77.172 E12.37640
G1 X84.145 Y73.416 E12.80019
G1 X83.601 Y72.871 E12.88713
G1 X84.163 Y65.172 F8400.000
G1 X84.177 Y61.239 E13.33085 F1800.000
G1 X81.787 Y58.849 E13.71219
G1 X90.673 Y58.849 E14.71471
G1 X90.673 Y65.172 E15.42808
G1 X84.223 Y65.172 E16.15578
G1 X84.822 Y60.106 F8400.000
G1 X81.676 Y58.664 F8400.000
G1 X69.628 Y47.003 F8400.000
G1 X68.368 Y46.601 F8400.000
G1 X68.866 Y46.593 F8400.000
G1 X63.469 Y51.990 E17.01695 F1800.000
G1 X58.658 Y46.961 E17.80216
G1 X58.249 Y46.516 E17.87045
G1 X57.897 Y45.988 E17.94197
G1 X57.647 Y45.421 E18.01189
G1 X57.497 Y44.820 E18.08180
G1 X57.452 Y44.202 E18.15172
G1 X57.514 Y43.585 E18.22164
G1 X57.680 Y42.988 E18.29155
G1 X57.945 Y42.428 E18.36147
G1 X58.302 Y41.922 E18.43138
G1 X58.740 Y41.484 E18.50130
G1 X59.247 Y41.127 E18.57122
G1 X59.807 Y40.862 E18.64113
G1 X60.404 Y40.696 E18.71105
G1 X61.021 Y40.635 E18.78096
G1 X61.627 Y40.680 E18.84952
G1 X62.242 Y40.832 E18.92104
G1 X62.807 Y41.081 E18.99069
G1 X63.358 Y41.449 E19.06541
G1 X63.569 Y41.631 E19.09693
G1 X68.823 Y46.552 E19.90905
G1 X69.199 Y47.271 F8400.000
G1 X64.088 Y52.382 E20.72460 F1800.000
G1 X83.203 Y71.497 E23.77466
G1 X83.203 Y72.114 E23.84429
G1 X91.387 Y72.114 E24.76766
G1 X91.387 Y72.135 E24.77000
G1 X91.680 Y72.135 E24.80309
G1 X88.269 Y79.625 E25.73172
G1 X87.931 Y79.552 E25.77070
G1 X87.931 Y77.886 E25.95867
G1 X83.431 Y77.886 E26.46639
G1 X83.431 Y77.254 E26.53771
G1 X79.431 Y77.254 E26.98902
G1 X79.431 Y76.482 E27.07609
G1 X83.431 Y76.482 E27.52739
G1 X83.431 Y73.711 E27.84000
G1 X79.508 Y69.788 E28.46600
G1 X58.137 Y47.450 E31.95397
G1 X57.685 Y46.958 E32.02936
G1 X57.269 Y46.333 E32.11412
G1 X56.969 Y45.653 E32.19790
G1 X56.789 Y44.933 E32.28168
G1 X56.736 Y44.192 E32.36546
G1 X56.809 Y43.453 E32.44924
G1 X57.008 Y42.738 E32.53301
G1 X57.326 Y42.067 E32.61679
G1 X57.754 Y41.460 E32.70057
G1 X58.279 Y40.935 E32.78435
G1 X58.886 Y40.508 E32.86813
G1 X59.557 Y40.190 E32.95191
G1 X60.273 Y39.992 E33.03569
G1 X61.012 Y39.919 E33.11947
G1 X61.739 Y39.972 E33.20179
G1 X62.474 Y40.153 E33.28717
G1 X63.152 Y40.453 E33.37078
G1 X63.791 Y40.879 E33.45749
G1 X64.047 Y41.101 E33.49566
G1 X82.234 Y58.135 E36.30711
G1 X91.387 Y58.135 E37.33984
G1 X91.387 Y65.886 E38.21436
G1 X83.446 Y65.886 E39.11027
G1 X83.462 Y61.534 E39.60132
G1 X69.241 Y47.313 E41.87039
G1 X81.676 Y58.664 F8400.000
G1 X89.522 Y64.021 F8400.000
G1 X108.133 Y64.021 F8400.000
G1 X108.317 Y65.816 F8400.000
G1 X108.317 Y66.000 F8400.000
G1 X108.917 Y66.600 F8400.000
G1 X115.717 Y66.600 E42.63761 F1800.000
G1 X115.717 Y71.400 E43.17918
G1 X108.917 Y71.400 E43.94641
G1 X108.917 Y66.660 E44.48120
G1 X108.917 Y66.200 F8400.000
G1 X109.051 Y72.828 F8400.000
G1 X115.925 Y72.828 E45.25676 F1800.000
G1 X115.489 Y73.265 E45.32640
G1 X115.489 Y77.172 E45.76720
G1 X111.006 Y77.172 E46.27303
G1 X109.076 Y72.883 E46.80362
G1 X108.961 Y65.172 F8400.000
G1 X108.961 Y58.849 E47.51699 F1800.000
G1 X117.847 Y58.849 E48.51951
G1 X115.613 Y61.083 E48.87596
G1 X115.599 Y65.172 E49.33729
G1 X109.021 Y65.172 E50.07939
G1 X130.790 Y46.615 F8400.000
G1 X136.037 Y41.658 E50.89382 F1800.000
G1 X136.280 Y41.446 E50.93025
G1 X136.828 Y41.081 E51.00452
G1 X137.395 Y40.830 E51.07444
G1 X137.996 Y40.680 E51.14435
G1 X138.614 Y40.635 E51.21426
G1 X139.231 Y40.697 E51.28418
G1 X139.828 Y40.862 E51.35410
G1 X140.388 Y41.127 E51.42401
G1 X140.895 Y41.484 E51.49393
G1 X141.333 Y41.922 E51.56384
G1 X141.690 Y42.429 E51.63376
G1 X141.955 Y42.989 E51.70368
G1 X142.121 Y43.586 E51.77359
G1 X142.182 Y44.203 E51.84351
G1 X142.137 Y44.821 E51.91342
G1 X141.987 Y45.422 E51.98334
G1 X141.736 Y45.989 E52.05325
G1 X141.386 Y46.514 E52.12449
G1 X140.957 Y46.979 E52.19585
G1 X136.150 Y51.975 E52.97811
G1 X130.832 Y46.657 E53.82660
G1 X130.435 Y47.271 F8400.000
G1 X116.326 Y61.380 E56.07789 F1800.000
G1 X116.310 Y65.886 E56.58630
G1 X108.247 Y65.886 E57.49604
G1 X108.247 Y58.135 E58.37056
G1 X117.554 Y58.135 E59.42062
G1 X135.557 Y41.129 E62.21477
G1 X135.846 Y40.877 E62.25802
G1 X136.483 Y40.452 E62.34445
G1 X137.163 Y40.152 E62.42823
G1 X137.883 Y39.973 E62.51201
G1 X138.624 Y39.919 E62.59579
G1 X139.363 Y39.992 E62.67957
G1 X140.078 Y40.190 E62.76335
G1 X140.749 Y40.508 E62.84713
G1 X141.356 Y40.936 E62.93090
G1 X141.881 Y41.461 E63.01468
G1 X142.309 Y42.068 E63.09846
G1 X142.627 Y42.739 E63.18224
G1 X142.825 Y43.455 E63.26602
G1 X142.898 Y44.193 E63.34980
G1 X142.844 Y44.934 E63.43358
G1 X142.665 Y45.655 E63.51736
G1 X142.365 Y46.334 E63.60114
G1 X141.949 Y46.958 E63.68572
G1 X141.476 Y47.469 E63.76428
G1 X120.672 Y69.092 E67.14976
G1 X116.203 Y73.561 E67.86286
G1 X116.203 Y76.482 E68.19248
G1 X120.203 Y76.482 E68.64379
