; generated by Slic3r 1.2.9 on 2017-02-10 at 16:44:13

; external perimeters extrusion width = 0.40mm
; perimeters extrusion width = 0.68mm
; infill extrusion width = 1.28mm
; solid infill extrusion width = 0.68mm
; top infill extrusion width = 0.68mm
; support material extrusion width = 0.40mm

M107
G28 ; home all axes
G29
G1 Z5 F5000 ; lift Z
G21 ; set units to millimeters
G90 ; use absolute coordinates
M82 ; use absolute distances for extrusion
G92 E0
G1 Z0.000 F8400.000
G1 E-3.00000 F2400.00000
G92 E0
G1 Z0.200 F8400.000
G1 X38.740 Y51.202 F8400.000
G1 Z0.000 F8400.000
G1 E3.00000 F2400.00000
G1 X39.622 Y50.537 E3.03155 F1800.000
G1 X40.544 Y49.960 E3.06257
G1 X41.529 Y49.457 E3.09413
G1 X42.537 Y49.048 E3.12516
G1 X43.305 Y48.793 E3.14825
G1 X68.621 Y42.123 E3.89521
G1 X70.240 Y41.913 E3.94181
G1 X100.901 Y41.913 E4.81662
G1 X102.529 Y42.125 E4.86346
G1 X127.165 Y48.652 E5.59063
G1 X128.408 Y49.022 E5.62762
G1 X129.430 Y49.430 E5.65902
G1 X130.397 Y49.916 E5.68990
G1 X131.334 Y50.494 E5.72130
G1 X132.352 Y51.255 E5.75758
G1 X163.431 Y75.836 E6.88814
G1 X164.919 Y77.518 E6.95223
G1 X165.729 Y79.614 E7.01632
G1 X165.845 Y80.822 E7.05095
G1 X165.845 Y117.822 E8.10663
G1 X165.448 Y120.033 E8.17072
G1 X164.307 Y121.968 E8.23481
G1 X163.497 Y122.755 E8.26705
G1 X132.530 Y147.920 E9.40554
G1 X131.577 Y148.665 E9.44005
G1 X130.650 Y149.268 E9.47160
G1 X129.689 Y149.779 E9.50265
G1 X128.672 Y150.211 E9.53418
G1 X127.378 Y150.627 E9.57297
G1 X101.465 Y157.854 E10.34051
G1 X99.758 Y158.087 E10.38969
G1 X69.097 Y158.087 E11.26451
G1 X67.249 Y157.813 E11.31781
G1 X42.918 Y150.421 E12.04335
G1 X42.224 Y150.165 E12.06445
G1 X41.230 Y149.732 E12.09538
G1 X40.265 Y149.207 E12.12673
G1 X39.372 Y148.616 E12.15728
G1 X38.501 Y147.925 E12.18901
G1 X37.714 Y147.180 E12.21992
G1 X36.984 Y146.358 E12.25129
G1 X36.338 Y145.489 E12.28217
G1 X35.761 Y144.552 E12.31357
G1 X35.279 Y143.596 E12.34413
G1 X34.867 Y142.563 E12.37585
G1 X34.554 Y141.527 E12.40674
G1 X34.329 Y140.450 E12.43814
G1 X34.200 Y139.374 E12.46903
G1 X34.155 Y138.618 E12.49065
G1 X34.161 Y60.580 E14.71723
G1 X34.224 Y59.689 E14.74270
G1 X34.376 Y58.613 E14.77373
G1 X34.626 Y57.535 E14.80528
G1 X34.963 Y56.501 E14.83632
G1 X35.395 Y55.484 E14.86786
G1 X35.906 Y54.523 E14.89889
G1 X36.508 Y53.596 E14.93044
G1 X37.178 Y52.739 E14.96146
G1 X37.932 Y51.930 E14.99301
G1 X38.695 Y51.243 E15.02233
G1 F6720
G1 X39.622 Y50.537 E14.62686
G1 F6720
G1 X40.544 Y49.960 E14.25795
G1 F6720
G1 X41.529 Y49.457 E13.88273
G1 F6720
G1 X42.537 Y49.048 E13.51366
G1 F6720
G1 X43.305 Y48.793 E13.23919
G1 F6720
G1 X46.345 Y47.992 E12.17233
G1 E12.02233 F2400.00000
G92 E0
G1 Z0.200 F8400.000
G1 X102.538 Y114.470 F8400.000
G1 Z0.000 F8400.000
G1 E3.00000 F2400.00000
G1 X102.645 Y114.231 E3.00748 F1800.000
G1 X102.790 Y114.013 E3.01495
G1 X102.970 Y113.823 E3.02243
G1 X103.180 Y113.665 E3.02991
G1 X103.412 Y113.545 E3.03739
G1 X103.662 Y113.465 E3.04487
G1 X103.909 Y113.430 E3.05199
G1 X104.181 Y113.435 E3.05974
G1 X104.441 Y113.487 E3.06729
G1 X104.686 Y113.581 E3.07477
G1 X104.911 Y113.714 E3.08225
G1 X105.093 Y113.868 E3.08906
G1 X125.969 Y134.743 E3.93139
G1 X126.461 Y135.005 E3.94730
G1 X127.006 Y135.426 E3.96694
G1 X127.471 Y135.933 E3.98658
G1 X127.844 Y136.512 E4.00622
G1 X128.114 Y137.145 E4.02585
G1 X128.274 Y137.814 E4.04549
G1 X128.317 Y138.501 E4.06513
G1 X128.248 Y139.149 E4.08370
G1 X128.058 Y139.846 E4.10432
G1 X127.760 Y140.469 E4.12404
G1 X127.362 Y141.031 E4.14368
G1 X126.876 Y141.518 E4.16332
G1 X126.314 Y141.915 E4.18295
G1 X125.693 Y142.212 E4.20259
G1 X125.030 Y142.400 E4.22223
G1 X124.346 Y142.473 E4.24187
G1 X123.659 Y142.429 E4.26151
G1 X122.989 Y142.270 E4.28115
G1 X122.356 Y142.000 E4.30079
G1 X121.778 Y141.627 E4.32043
G1 X121.271 Y141.161 E4.34007
G1 X120.872 Y140.647 E4.35864
G1 X120.589 Y140.126 E4.37553
G1 X102.744 Y122.263 E5.09597
G1 X102.522 Y121.827 E5.10992
G1 X102.452 Y121.388 E5.12262
G1 X102.452 Y114.962 E5.30597
G1 X102.472 Y114.724 E5.31277
G1 X102.523 Y114.528 E5.31854
G1 X103.742 Y113.815 F8400.000
G1 X103.931 Y113.788 E5.32399 F1800.000
G1 X104.143 Y113.792 E5.33002
G1 X104.341 Y113.831 E5.33581
G1 X104.530 Y113.903 E5.34157
G1 X104.704 Y114.006 E5.34733
G1 X104.852 Y114.131 E5.35285
G1 X125.754 Y135.033 E6.19627
G1 X126.267 Y135.306 E6.21284
G1 X126.763 Y135.690 E6.23074
G1 X127.188 Y136.152 E6.24865
G1 X127.528 Y136.680 E6.26655
G1 X127.774 Y137.257 E6.28446
G1 X127.919 Y137.867 E6.30236
G1 X127.959 Y138.494 E6.32027
G1 X127.896 Y139.082 E6.33715
G1 X127.722 Y139.721 E6.35604
G1 X127.451 Y140.288 E6.37397
G1 X127.088 Y140.800 E6.39188
G1 X126.645 Y141.244 E6.40978
G1 X126.132 Y141.606 E6.42769
G1 X125.566 Y141.877 E6.44559
G1 X124.962 Y142.048 E6.46350
G1 X124.338 Y142.114 E6.48140
G1 X123.712 Y142.075 E6.49931
G1 X123.101 Y141.930 E6.51721
G1 X122.524 Y141.683 E6.53512
G1 X121.997 Y141.343 E6.55302
G1 X121.534 Y140.919 E6.57093
G1 X121.172 Y140.451 E6.58781
G1 X120.879 Y139.910 E6.60536
G1 X103.036 Y122.051 E7.32566
G1 X102.865 Y121.716 E7.33639
G1 X102.809 Y121.360 E7.34667
G1 X102.809 Y114.977 E7.52878
G1 X102.825 Y114.784 E7.53430
G1 X102.876 Y114.589 E7.54006
G1 X102.958 Y114.404 E7.54582
G1 X103.070 Y114.237 E7.55158
G1 X103.209 Y114.090 E7.55734
G1 X103.370 Y113.969 E7.56310
G1 X103.550 Y113.876 E7.56886
G1 X103.685 Y113.833 E7.57290
G1 X103.803 Y113.634 F8400.000
G1 F6720
G1 X103.931 Y113.788 E7.48796
G1 F6720
G1 X104.143 Y113.792 E7.41616
G1 F6720
G1 X104.341 Y113.831 E7.34737
G1 F6720
G1 X104.530 Y113.903 E7.27889
G1 F6720
G1 X104.704 Y114.006 E7.21040
G1 F6720
G1 X104.852 Y114.131 E7.14479
G1 F6720
G1 X109.899 Y119.178 E4.72290
G1 E4.57290 F2400.00000
G92 E0
G1 Z0.200 F8400.000
G1 X102.066 Y116.222 F8400.000
G1 Z0.000 F8400.000
G1 E3.00000 F2400.00000
G1 X94.952 Y116.222 E3.20298 F1800.000
G1 X94.952 Y110.608 E3.36316
G1 X102.066 Y110.608 E3.56614
G1 X102.066 Y116.162 E3.72461
G1 X101.709 Y115.865 F8400.000
G1 X95.309 Y115.865 E3.90722 F1800.000
G1 X95.309 Y110.965 E4.04702
G1 X101.709 Y110.965 E4.22962
G1 X101.709 Y115.805 E4.36772
G1 X101.709 Y116.265 F8400.000
G1 F6720
G1 X95.309 Y115.865 E2.19620
G1 F6720
G1 X95.309 Y113.865 E1.51772
G1 E1.36772 F2400.00000
G92 E0
G1 Z0.200 F8400.000
G1 X93.369 Y115.890 F8400.000
G1 Z0.000 F8400.000
G1 E3.00000 F2400.00000
G1 X93.305 Y116.159 E3.00789 F1800.000
G1 X93.162 Y116.463 E3.01749
G1 X92.940 Y116.756 E3.02798
G1 X92.725 Y116.940 E3.03605
G1 X92.308 Y117.152 E3.04938
G1 X91.869 Y117.222 E3.06208
G1 X78.948 Y117.209 E3.43073
G1 X78.504 Y117.065 E3.44404
G1 X78.273 Y116.923 E3.45178
G1 X78.059 Y116.734 E3.45994
G1 X77.809 Y116.388 E3.47212
G1 X77.697 Y116.103 E3.48087
G1 X77.636 Y115.707 E3.49228
G1 X77.636 Y114.620 E3.52331
G1 X77.654 Y114.393 E3.52979
G1 X77.725 Y114.116 E3.53794
G1 X77.918 Y113.741 E3.54999
G1 X78.105 Y113.523 E3.55819
G1 X78.483 Y113.248 E3.57152
G1 X78.927 Y113.104 E3.58484
G1 X79.171 Y113.085 E3.59183
G1 X92.070 Y113.097 E3.95985
G1 X92.518 Y113.242 E3.97329
G1 X92.776 Y113.406 E3.98201
G1 X93.091 Y113.723 E3.99477
G1 X93.313 Y114.158 E4.00869
G1 X93.383 Y114.601 E4.02147
G1 X93.370 Y115.830 E4.05654
G1 X93.013 Y115.846 F8400.000
G1 X92.966 Y116.040 E4.06225 F1800.000
G1 X92.855 Y116.278 E4.06973
G1 X92.679 Y116.510 E4.07804
G1 X92.525 Y116.641 E4.08381
G1 X92.197 Y116.808 E4.09432
G1 X91.841 Y116.865 E4.10460
G1 X79.005 Y116.852 E4.47083
G1 X78.655 Y116.739 E4.48134
G1 X78.486 Y116.635 E4.48698
G1 X78.325 Y116.493 E4.49311
G1 X78.125 Y116.215 E4.50287
G1 X78.043 Y116.009 E4.50921
G1 X77.993 Y115.680 E4.51870
G1 X78.007 Y114.452 E4.55373
G1 X78.061 Y114.244 E4.55986
G1 X78.217 Y113.942 E4.56957
G1 X78.349 Y113.787 E4.57539
G1 X78.647 Y113.570 E4.58589
G1 X78.997 Y113.456 E4.59640
G1 X79.185 Y113.442 E4.60178
G1 X92.013 Y113.454 E4.96779
G1 X92.365 Y113.568 E4.97833
G1 X92.551 Y113.686 E4.98462
G1 X92.798 Y113.935 E4.99463
G1 X92.969 Y114.270 E5.00535
G1 X93.025 Y114.627 E5.01566
G1 X93.013 Y115.786 E5.04873
G1 X93.167 Y115.972 F8400.000
G1 F6720
G1 X92.966 Y116.040 E4.96095
G1 F6720
G1 X92.855 Y116.278 E4.87198
G1 F6720
G1 X92.679 Y116.510 E4.77311
G1 F6720
G1 X92.525 Y116.641 E4.70451
G1 F6720
G1 X92.197 Y116.808 E4.57958
G1 F6720
G1 X91.841 Y116.865 E4.45731
G1 F6720
G1 X85.184 Y116.858 E2.19873
G1 E2.04873 F2400.00000
G92 E0
G1 Z0.200 F8400.000
G1 X92.433 Y112.180 F8400.000
G1 Z0.000 F8400.000
G1 E3.00000 F2400.00000
G1 X92.202 Y112.199 E3.00663 F1800.000
G1 X78.816 Y112.199 E3.38854
G1 X78.585 Y112.180 E3.39517
G1 X78.337 Y112.118 E3.40245
G1 X78.099 Y112.014 E3.40987
G1 X77.871 Y111.861 E3.41768
G1 X77.700 Y111.706 E3.42429
G1 X77.542 Y111.505 E3.43157
G1 X77.429 Y111.302 E3.43820
G1 X75.612 Y107.269 E3.56441
G1 X75.532 Y107.043 E3.57126
G1 X75.488 Y106.768 E3.57919
G1 X75.486 Y106.534 E3.58589
G1 X75.527 Y106.278 E3.59327
G1 X75.611 Y106.029 E3.60076
G1 X75.746 Y105.785 E3.60872
G1 X75.890 Y105.600 E3.61541
G1 X76.079 Y105.424 E3.62280
G1 X76.296 Y105.282 E3.63018
G1 X76.532 Y105.177 E3.63756
G1 X76.783 Y105.113 E3.64495
G1 X77.018 Y105.094 E3.65167
G1 X94.005 Y105.094 E4.13633
G1 X94.255 Y105.118 E4.14352
G1 X94.486 Y105.177 E4.15031
G1 X94.723 Y105.282 E4.15769
G1 X94.939 Y105.424 E4.16507
G1 X95.129 Y105.600 E4.17246
G1 X95.287 Y105.805 E4.17984
G1 X95.408 Y106.033 E4.18722
G1 X95.491 Y106.278 E4.19461
G1 X95.532 Y106.534 E4.20199
G1 X95.530 Y106.793 E4.20937
G1 X95.485 Y107.047 E4.21676
G1 X95.406 Y107.269 E4.22348
G1 X93.589 Y111.302 E4.34968
G1 X93.475 Y111.509 E4.35643
G1 X93.303 Y111.720 E4.36418
G1 X93.129 Y111.877 E4.37087
G1 X92.915 Y112.016 E4.37815
G1 X92.681 Y112.118 E4.38544
G1 X92.491 Y112.165 E4.39101
G1 X92.375 Y111.826 F8400.000
G1 X92.187 Y111.842 E4.39638 F1800.000
G1 X78.831 Y111.842 E4.77745
G1 X78.643 Y111.826 E4.78283
G1 X78.453 Y111.778 E4.78844
G1 X78.271 Y111.699 E4.79409
G1 X78.092 Y111.579 E4.80024
G1 X77.962 Y111.461 E4.80526
G1 X77.840 Y111.307 E4.81087
G1 X77.749 Y111.142 E4.81624
G1 X75.944 Y107.136 E4.94160
G1 X75.879 Y106.955 E4.94710
G1 X75.845 Y106.739 E4.95333
G1 X75.844 Y106.561 E4.95842
G1 X75.875 Y106.364 E4.96410
G1 X75.939 Y106.174 E4.96982
G1 X76.045 Y105.982 E4.97608
G1 X76.154 Y105.841 E4.98116
G1 X76.300 Y105.706 E4.98684
G1 X76.467 Y105.596 E4.99253
G1 X76.649 Y105.516 E4.99822
G1 X76.842 Y105.467 E5.00390
G1 X77.033 Y105.451 E5.00935
G1 X93.987 Y105.451 E5.49309
G1 X94.193 Y105.471 E5.49901
G1 X94.369 Y105.516 E5.50417
G1 X94.551 Y105.596 E5.50986
G1 X94.718 Y105.706 E5.51555
G1 X94.864 Y105.841 E5.52123
G1 X94.986 Y105.999 E5.52692
G1 X95.080 Y106.175 E5.53261
G1 X95.143 Y106.364 E5.53829
G1 X95.174 Y106.561 E5.54398
G1 X95.173 Y106.760 E5.54967
G1 X95.138 Y106.956 E5.55535
G1 X95.075 Y107.136 E5.56080
G1 X93.270 Y111.142 E5.68616
G1 X93.178 Y111.308 E5.69158
G1 X93.043 Y111.473 E5.69766
G1 X92.911 Y111.593 E5.70275
G1 X92.746 Y111.700 E5.70836
G1 X92.565 Y111.778 E5.71397
G1 X92.433 Y111.812 E5.71786
G1 X92.304 Y112.001 F8400.000
G1 F6720
G1 X92.187 Y111.842 E5.63380
G1 F6720
G1 X84.035 Y111.842 E2.86786
G1 E2.71786 F2400.00000
G92 E0
G1 Z0.200 F8400.000
G1 X94.553 Y104.208 F8400.000
G1 Z0.000 F8400.000
G1 E3.00000 F2400.00000
G1 X76.465 Y104.208 E3.51608 F1800.000
G1 X76.026 Y104.138 E3.52877
G1 X75.590 Y103.916 E3.54273
G1 X75.244 Y103.570 E3.55669
G1 X75.032 Y103.154 E3.57002
G1 X74.965 Y102.874 E3.57823
G1 X74.952 Y98.626 E3.69945
G1 X74.976 Y98.364 E3.70695
G1 X75.116 Y97.940 E3.71969
G1 X75.390 Y97.563 E3.73298
G1 X75.609 Y97.376 E3.74119
G1 X75.994 Y97.178 E3.75354
G1 X76.263 Y97.111 E3.76146
G1 X76.487 Y97.094 E3.76787
G1 X94.553 Y97.094 E4.28332
G1 X94.970 Y97.160 E4.29538
G1 X95.237 Y97.270 E4.30362
G1 X95.615 Y97.545 E4.31694
G1 X95.903 Y97.941 E4.33091
G1 X96.054 Y98.405 E4.34484
G1 X96.066 Y102.694 E4.46720
G1 X95.997 Y103.134 E4.47992
G1 X95.774 Y103.570 E4.49388
G1 X95.428 Y103.916 E4.50784
G1 X94.992 Y104.138 E4.52181
G1 X94.612 Y104.199 E4.53279
G1 X94.525 Y103.851 F8400.000
G1 X76.493 Y103.851 E5.04726 F1800.000
G1 X76.137 Y103.794 E5.05754
G1 X75.802 Y103.624 E5.06827
G1 X75.536 Y103.358 E5.07901
G1 X75.369 Y103.030 E5.08951
G1 X75.321 Y102.831 E5.09533
G1 X75.309 Y98.642 E5.21487
G1 X75.328 Y98.437 E5.22073
G1 X75.438 Y98.105 E5.23072
G1 X75.654 Y97.807 E5.24122
G1 X75.809 Y97.675 E5.24703
G1 X76.120 Y97.515 E5.25701
G1 X76.321 Y97.465 E5.26290
G1 X76.501 Y97.451 E5.26807
G1 X94.525 Y97.451 E5.78232
G1 X94.873 Y97.506 E5.79237
G1 X95.061 Y97.584 E5.79820
G1 X95.359 Y97.801 E5.80871
G1 X95.580 Y98.105 E5.81944
G1 X95.697 Y98.462 E5.83017
G1 X95.709 Y102.666 E5.95011
G1 X95.653 Y103.022 E5.96040
G1 X95.482 Y103.358 E5.97113
G1 X95.216 Y103.624 E5.98187
G1 X94.881 Y103.794 E5.99260
G1 X94.584 Y103.841 E6.00117
G1 X94.343 Y104.207 F8400.000
G1 F6720
G1 X86.184 Y103.846 E3.15117
G1 E3.00117 F2400.00000
G92 E0
G1 Z0.200 F8400.000
G1 X72.066 Y104.722 F8400.000
G1 Z0.000 F8400.000
G1 E3.00000 F2400.00000
G1 X68.952 Y104.722 E3.08885 F1800.000
G1 X68.952 Y94.608 E3.37743
G1 X72.066 Y94.608 E3.46628
G1 X72.066 Y104.662 E3.75314
G1 X71.709 Y104.365 F8400.000
G1 X69.309 Y104.365 E3.82162 F1800.000
G1 X69.309 Y94.965 E4.08982
G1 X71.709 Y94.965 E4.15829
G1 X71.709 Y104.305 E4.42478
G1 X71.709 Y104.765 F8400.000
G1 F6720
G1 X69.309 Y104.365 E3.61025
G1 F6720
G1 X69.309 Y98.365 E1.57478
G1 E1.42478 F2400.00000
G92 E0
G1 Z0.200 F8400.000
G1 X76.284 Y96.019 F8400.000
G1 Z0.000 F8400.000
G1 E3.00000 F2400.00000
G1 X76.067 Y95.877 E3.00740 F1800.000
G1 X75.877 Y95.700 E3.01480
G1 X75.719 Y95.495 E3.02218
G1 X75.598 Y95.267 E3.02955
G1 X75.516 Y95.019 E3.03699
G1 X75.475 Y94.762 E3.04442
G1 X75.479 Y94.499 E3.05194
G1 X75.524 Y94.249 E3.05918
G1 X75.604 Y94.027 E3.06592
G1 X77.429 Y90.019 E3.19156
G1 X77.542 Y89.817 E3.19816
G1 X77.700 Y89.618 E3.20542
G1 X77.889 Y89.447 E3.21268
G1 X78.103 Y89.310 E3.21993
G1 X78.336 Y89.209 E3.22719
G1 X78.583 Y89.147 E3.23445
G1 X78.814 Y89.128 E3.24106
G1 X92.201 Y89.128 E3.62303
G1 X92.433 Y89.147 E3.62966
G1 X92.681 Y89.209 E3.63695
G1 X92.919 Y89.313 E3.64436
G1 X93.145 Y89.464 E3.65211
G1 X93.318 Y89.622 E3.65880
G1 X93.477 Y89.822 E3.66609
G1 X93.589 Y90.026 E3.67272
G1 X95.392 Y94.033 E3.79810
G1 X95.471 Y94.255 E3.80482
G1 X95.515 Y94.510 E3.81220
G1 X95.517 Y94.769 E3.81958
G1 X95.476 Y95.024 E3.82696
G1 X95.393 Y95.270 E3.83437
G1 X95.272 Y95.498 E3.84173
G1 X95.114 Y95.702 E3.84911
G1 X94.924 Y95.878 E3.85649
G1 X94.708 Y96.020 E3.86387
G1 X94.471 Y96.125 E3.87125
G1 X94.220 Y96.188 E3.87863
G1 X93.986 Y96.208 E3.88535
G1 X77.007 Y96.208 E4.36978
G1 X76.772 Y96.188 E4.37652
G1 X76.521 Y96.124 E4.38392
G1 X76.338 Y96.044 E4.38960
G1 X76.455 Y95.705 F8400.000
G1 X76.288 Y95.595 E4.39530 F1800.000
G1 X76.142 Y95.459 E4.40100
G1 X76.021 Y95.301 E4.40669
G1 X75.927 Y95.125 E4.41236
G1 X75.864 Y94.935 E4.41809
G1 X75.833 Y94.737 E4.42380
G1 X75.836 Y94.533 E4.42962
G1 X75.870 Y94.341 E4.43518
G1 X75.935 Y94.161 E4.44064
G1 X77.748 Y90.180 E4.56544
G1 X77.839 Y90.017 E4.57079
G1 X77.961 Y89.863 E4.57638
G1 X78.107 Y89.732 E4.58197
G1 X78.271 Y89.626 E4.58756
G1 X78.451 Y89.548 E4.59315
G1 X78.641 Y89.501 E4.59874
G1 X78.828 Y89.485 E4.60410
G1 X92.187 Y89.485 E4.98524
G1 X92.374 Y89.501 E4.99062
G1 X92.565 Y89.549 E4.99623
G1 X92.747 Y89.628 E5.00188
G1 X92.924 Y89.746 E5.00796
G1 X93.056 Y89.866 E5.01306
G1 X93.178 Y90.021 E5.01867
G1 X93.269 Y90.185 E5.02405
G1 X95.060 Y94.166 E5.14859
G1 X95.124 Y94.346 E5.15403
G1 X95.158 Y94.542 E5.15972
G1 X95.160 Y94.742 E5.16540
G1 X95.128 Y94.938 E5.17109
G1 X95.065 Y95.128 E5.17679
G1 X94.971 Y95.303 E5.18246
G1 X94.849 Y95.461 E5.18814
