; generated by Slic3r 1.2.9 on 2017-02-04 at 00:32:01

; external perimeters extrusion width = 0.40mm
; perimeters extrusion width = 0.67mm
; infill extrusion width = 0.67mm
; solid infill extrusion width = 0.67mm
; top infill extrusion width = 0.67mm
; support material extrusion width = 0.40mm

M107
G28 ; home all axes
G29
G1 Z5 F5000 ; lift Z
G21 ; set units to millimeters
G90 ; use absolute coordinates
M82 ; use absolute distances for extrusion
G92 E0
G1 Z0.300 F8400.000
G1 E-4.00000 F2400.00000
G92 E0
G1 Z0.500 F8400.000
G1 X50.867 Y38.001 F8400.000
G1 Z0.300 F8400.000
G1 E4.00000 F2400.00000
G1 X51.613 Y37.115 E4.13062 F1800.000
G1 X52.375 Y36.353 E4.25222
G1 X53.261 Y35.608 E4.38284
G1 X54.143 Y34.988 E4.50447
G1 X55.144 Y34.407 E4.63506
G1 X56.119 Y33.948 E4.75665
G1 X57.205 Y33.547 E4.88727
G1 X58.245 Y33.263 E5.00886
G1 X59.384 Y33.054 E5.13949
G1 X60.457 Y32.952 E5.26116
G1 X61.091 Y32.923 E5.33270
G1 X138.695 Y32.923 E14.08860
G1 X139.331 Y32.953 E14.16039 F1800.000
G1 X140.404 Y33.055 E14.28199
G1 X141.543 Y33.263 E14.41261
G1 X142.582 Y33.548 E14.53421
G1 X143.668 Y33.949 E14.66483
G1 X144.643 Y34.408 E14.78643
G1 X145.644 Y34.990 E14.91705
G1 X146.526 Y35.610 E15.03864
G1 X147.412 Y36.355 E15.16926
G1 X148.174 Y37.117 E15.29085
G1 X148.919 Y38.003 E15.42147
G1 X149.540 Y38.886 E15.54326
G1 X150.120 Y39.886 E15.67370
G1 X150.580 Y40.861 E15.79533
G1 X150.981 Y41.947 E15.92592
G1 X151.265 Y42.986 E16.04751
G1 X151.445 Y43.869 E16.14916
G1 X154.740 Y68.471 E18.94969
G1 X154.800 Y69.362 E19.05049
G1 X154.800 Y101.362 E22.66095
G1 X154.733 Y102.309 E22.76799
G1 X151.437 Y125.457 E25.40612
G1 X151.266 Y126.284 E25.50137
G1 X150.981 Y127.323 E25.62296
G1 X150.581 Y128.409 E25.75358
G1 X150.121 Y129.385 E25.87526
G1 X149.540 Y130.386 E26.00580
G1 X148.921 Y131.267 E26.12739
G1 X123.571 Y164.441 E30.83795
G1 X121.874 Y166.007 E31.09846
G1 X119.747 Y166.905 E31.35898
G1 X118.236 Y167.077 E31.53052
G1 X81.236 Y167.077 E35.70512
G1 X78.962 Y166.680 E35.96563
G1 X76.956 Y165.536 E36.22614
G1 X75.878 Y164.409 E36.40220
G1 X51.000 Y131.454 E41.06094
G1 X50.245 Y130.387 E41.20834
G1 X49.664 Y129.387 E41.33882
G1 X49.205 Y128.412 E41.46046
G1 X48.804 Y127.326 E41.59104
G1 X48.519 Y126.286 E41.71272
G1 X48.341 Y125.411 E41.81343
G1 X45.261 Y102.615 E44.40889
G1 X45.200 Y101.716 E44.51055
G1 X45.200 Y69.716 E48.12101
G1 X45.251 Y68.893 E48.21399
G1 X48.331 Y43.937 E51.05112
G1 X48.520 Y42.983 E51.16079
G1 X48.805 Y41.944 E51.28238
G1 X49.206 Y40.858 E51.41300
G1 X49.665 Y39.883 E51.53460
G1 X50.247 Y38.882 E51.66522
G1 X50.833 Y38.050 E51.78005
G1 E47.78005 F2400.00000
G92 E0
G1 Z0.500 F8400.000
G1 X138.757 Y87.534 F8400.000
G1 Z0.300 F8400.000
G1 E4.00000 F2400.00000
G1 X138.757 Y103.534 E5.80523 F1800.000
G1 X137.414 Y103.534 E5.95680
G1 X137.414 Y87.534 E7.76203
G1 X129.914 Y87.534 E8.60823
G1 X129.914 Y83.191 E9.09828
G1 X137.414 Y83.191 E9.94448
G1 X137.414 Y65.534 E11.93663
G1 X135.914 Y65.534 E12.10587
G1 X135.914 Y63.191 E12.37026
G1 X140.257 Y63.191 E12.86031
G1 X140.257 Y65.534 E13.12470
G1 X138.757 Y65.534 E13.29394
G1 X138.757 Y83.191 E15.28609
G1 X146.257 Y83.191 E16.13229
G1 X146.257 Y87.534 E16.62234
G1 X138.817 Y87.534 E17.46177
G1 X139.471 Y88.248 F8400.000
G1 X139.471 Y92.476 E17.93884 F1800.000
G1 X140.971 Y92.476 E18.10808
G1 X140.971 Y94.248 E18.30797
G1 X139.471 Y94.248 E18.47721
G1 X139.471 Y98.476 E18.95428
G1 X146.971 Y98.476 E19.80048
G1 X146.971 Y100.248 E20.00038
G1 X139.471 Y100.248 E20.84658
G1 X139.471 Y104.248 E21.29789
G1 X136.700 Y104.248 E21.61061
G1 X136.700 Y100.248 E22.06191
G1 X129.200 Y100.248 E22.90812
G1 X129.200 Y98.476 E23.10801
G1 X136.700 Y98.476 E23.95421
G1 X136.700 Y94.248 E24.43128
G1 X135.200 Y94.248 E24.60052
G1 X135.200 Y92.476 E24.80041
G1 X136.700 Y92.476 E24.96965
G1 X136.700 Y88.248 E25.44672
G1 X129.200 Y88.248 E26.29292
G1 X129.200 Y82.476 E26.94412
G1 X136.700 Y82.476 E27.79033
G1 X136.700 Y78.248 E28.26739
G1 X135.200 Y78.248 E28.43664
G1 X135.200 Y76.476 E28.63653
G1 X136.700 Y76.476 E28.80577
G1 X136.700 Y72.248 E29.28284
G1 X129.200 Y72.248 E30.12904
G1 X129.200 Y70.476 E30.32893
G1 X136.700 Y70.476 E31.17513
G1 X136.700 Y66.248 E31.65220
G1 X135.200 Y66.248 E31.82144
G1 X135.200 Y62.476 E32.24699
G1 X140.971 Y62.476 E32.89819
G1 X140.971 Y66.248 E33.32374
G1 X139.471 Y66.248 E33.49298
G1 X139.471 Y70.476 E33.97005
G1 X146.971 Y70.476 E34.81625
G1 X146.971 Y72.248 E35.01614
G1 X139.471 Y72.248 E35.86234
G1 X139.471 Y76.476 E36.33941
G1 X140.971 Y76.476 E36.50865
G1 X140.971 Y78.248 E36.70855
G1 X139.471 Y78.248 E36.87779
G1 X139.471 Y82.476 E37.35486
G1 X146.971 Y82.476 E38.20106
G1 X146.971 Y88.248 E38.85226
G1 X139.531 Y88.248 E39.69169
G1 X140.186 Y88.962 F8400.000
G1 X140.186 Y91.762 E40.00761 F1800.000
G1 X141.686 Y91.762 E40.17685
G1 X141.686 Y94.962 E40.53789
G1 X140.186 Y94.962 E40.70713
G1 X140.186 Y97.762 E41.02305
G1 X147.686 Y97.762 E41.86925
G1 X147.686 Y100.962 E42.23030
G1 X140.186 Y100.962 E43.07650
G1 X140.186 Y103.762 E43.39241
G1 X141.686 Y103.762 E43.56165
G1 X141.686 Y104.962 E43.69705
G1 X134.486 Y104.962 E44.50940
G1 X134.486 Y103.762 E44.64479
G1 X135.986 Y103.762 E44.81403
G1 X135.986 Y100.962 E45.12995
G1 X128.486 Y100.962 E45.97615
G1 X128.486 Y97.762 E46.33720
G1 X135.986 Y97.762 E47.18340
G1 X135.986 Y94.962 E47.49931
G1 X134.486 Y94.962 E47.66855
G1 X134.486 Y91.762 E48.02960
G1 X135.986 Y91.762 E48.19884
G1 X135.986 Y88.962 E48.51476
G1 X128.486 Y88.962 E49.36096
G1 X128.486 Y81.762 E50.17331
G1 X135.986 Y81.762 E51.01951
G1 X135.986 Y78.962 E51.33543
G1 X134.486 Y78.962 E51.50467
G1 X134.486 Y75.762 E51.86572
G1 X135.986 Y75.762 E52.03496
G1 X135.986 Y72.962 E52.35087
G1 X128.486 Y72.962 E53.19707
G1 X128.486 Y69.762 E53.55812
G1 X135.986 Y69.762 E54.40432
G1 X135.986 Y66.962 E54.72024
G1 X134.486 Y66.962 E54.88948
G1 X134.486 Y61.762 E55.47618
G1 X141.686 Y61.762 E56.28853
G1 X141.686 Y66.962 E56.87523
G1 X140.186 Y66.962 E57.04447
G1 X140.186 Y69.762 E57.36039
G1 X147.686 Y69.762 E58.20659
G1 X147.686 Y72.962 E58.56764
G1 X140.186 Y72.962 E59.41384
G1 X140.186 Y75.762 E59.72975
G1 X141.686 Y75.762 E59.89899
G1 X141.686 Y78.962 E60.26004
G1 X140.186 Y78.962 E60.42928
G1 X140.186 Y81.762 E60.74520
G1 X147.686 Y81.762 E61.59140
G1 X147.686 Y88.962 E62.40375
G1 X140.246 Y88.962 E63.24318
G1 X139.786 Y88.962 F8400.000
G1 X138.086 Y87.177 F8400.000
G1 X138.086 Y103.177 E67.07063 F1800.000
G1 X136.343 Y104.362 F8400.000
G1 X134.843 Y104.362 E67.42945 F1800.000
G1 X139.829 Y104.362 F8400.000
G1 X141.329 Y104.362 E67.78827 F1800.000
G1 E63.78827 F2400.00000
G92 E0
G1 Z0.500 F8400.000
G1 X139.586 Y100.362 F8400.000
G1 X139.586 Y100.362 F8400.000
G1 X139.586 Y99.362 F8400.000
G1 X139.114 Y99.362 F8400.000
G1 Z0.300 F8400.000
G1 E4.00000 F2400.00000
G1 X146.614 Y99.362 E5.79411 F1800.000
G1 X138.086 Y98.362 F8400.000
G1 X138.086 Y93.362 F8400.000
G1 X139.586 Y93.362 F8400.000
G1 X140.086 Y93.362 F8400.000
G1 X140.614 Y93.362 F8400.000
G1 X139.114 Y93.362 E6.15293 F1800.000
G1 X137.057 Y93.362 F8400.000
G1 X135.557 Y93.362 E6.51176 F1800.000
G1 X137.057 Y99.362 F8400.000
G1 X129.557 Y99.362 E8.30587 F1800.000
G1 X136.586 Y99.362 F8400.000
G1 X138.086 Y92.362 F8400.000
G1 X136.586 Y85.362 F8400.000
G1 X132.086 Y85.362 F8400.000
G1 X129.086 Y88.362 F8400.000
G1 X130.349 Y86.755 F8400.000
G1 X130.692 Y87.098 E8.36083 F1800.000
G1 X131.707 Y87.098 E8.47578
G1 X130.349 Y85.741 E8.69330
G1 X130.349 Y84.727 E8.80825
G1 X132.721 Y87.098 E9.18834
G1 X133.736 Y87.098 E9.30328
G1 X130.349 Y83.712 E9.84592
G1 X131.278 Y83.626 E9.95155
G1 X134.750 Y87.098 E10.50801
G1 X135.764 Y87.098 E10.62296
G1 X132.292 Y83.626 E11.17942
G1 X133.306 Y83.626 E11.29437
G1 X136.779 Y87.098 E11.85083
G1 X137.436 Y86.741 F8400.000
G1 X134.321 Y83.626 E12.35007 F1800.000
G1 X135.335 Y83.626 E12.46502
G1 X138.450 Y86.741 E12.96425
G1 X139.822 Y87.098 E13.12484
G1 X136.349 Y83.626 E13.68131
G1 X136.850 Y84.127 E13.76154
G1 X137.721 Y83.983 E13.86155
G1 X140.836 Y87.098 E14.36079
G1 X141.851 Y87.098 E14.47573
G1 X138.735 Y83.983 E14.97497
G1 X139.393 Y83.626 F8400.000
G1 X142.865 Y87.098 E15.53143 F1800.000
G1 X143.879 Y87.098 E15.64638
G1 X140.407 Y83.626 E16.20284
G1 X141.421 Y83.626 E16.31779
G1 X144.894 Y87.098 E16.87425
G1 X145.822 Y87.012 E16.97988
G1 X142.436 Y83.626 E17.52252
G1 X143.450 Y83.626 E17.63747
G1 X145.822 Y85.998 E18.01755
G1 X145.822 Y84.983 E18.13250
G1 X144.464 Y83.626 E18.35003
G1 X145.479 Y83.626 E18.46497
G1 X145.822 Y83.969 E18.51994
G1 X138.086 Y83.548 F8400.000
G1 X138.086 Y65.177 E22.91451 F1800.000
G1 X136.692 Y65.098 F8400.000
G1 X136.349 Y64.755 E22.97220 F1800.000
G1 X136.349 Y63.691 E23.09883
G1 X137.400 Y64.741 E23.27554
G1 X138.465 Y64.741 E23.40217
G1 X137.349 Y63.626 E23.58976
G1 X138.414 Y63.626 E23.71639
G1 X139.822 Y65.034 E23.95316
G1 X139.321 Y64.533 E24.03737
G1 X139.479 Y63.626 E24.14686
G1 X139.822 Y63.969 E24.20455
G1 X139.114 Y71.362 F8400.000
G1 X146.614 Y71.362 E25.99867 F1800.000
G1 X138.086 Y72.362 F8400.000
G1 X138.086 Y77.362 F8400.000
G1 X139.586 Y77.362 F8400.000
G1 X140.086 Y77.362 F8400.000
G1 X140.614 Y77.362 F8400.000
G1 X139.114 Y77.362 E26.35749 F1800.000
G1 X137.057 Y77.362 F8400.000
G1 X135.557 Y77.362 E26.71631 F1800.000
G1 X137.057 Y71.362 F8400.000
G1 X129.557 Y71.362 E28.51042 F1800.000
G1 E24.51042 F2400.00000
G92 E0
G1 Z0.500 F8400.000
G1 X62.586 Y87.887 F8400.000
G1 Z0.300 F8400.000
G1 E4.00000 F2400.00000
G1 X62.586 Y103.887 E5.80523 F1800.000
G1 X61.243 Y103.887 E5.95680
G1 X61.243 Y87.887 E7.76203
G1 X53.743 Y87.887 E8.60823
G1 X53.743 Y83.544 E9.09828
G1 X61.243 Y83.544 E9.94448
G1 X61.243 Y65.887 E11.93663
G1 X59.743 Y65.887 E12.10587
G1 X59.743 Y63.544 E12.37026
G1 X64.086 Y63.544 E12.86031
G1 X64.086 Y65.887 E13.12470
G1 X62.586 Y65.887 E13.29394
G1 X62.586 Y83.544 E15.28609
G1 X70.086 Y83.544 E16.13229
G1 X70.086 Y87.887 E16.62234
G1 X62.646 Y87.887 E17.46177
G1 X63.300 Y88.601 F8400.000
G1 X63.300 Y92.830 E17.93884 F1800.000
G1 X64.800 Y92.830 E18.10808
G1 X64.800 Y94.601 E18.30797
G1 X63.300 Y94.601 E18.47721
G1 X63.300 Y98.830 E18.95428
G1 X70.800 Y98.830 E19.80048
G1 X70.800 Y100.601 E20.00038
G1 X63.300 Y100.601 E20.84658
G1 X63.300 Y104.601 E21.29789
G1 X60.529 Y104.601 E21.61061
G1 X60.529 Y100.601 E22.06191
G1 X53.029 Y100.601 E22.90812
G1 X53.029 Y98.830 E23.10801
G1 X60.529 Y98.830 E23.95421
G1 X60.529 Y94.601 E24.43128
G1 X59.029 Y94.601 E24.60052
G1 X59.029 Y92.830 E24.80041
G1 X60.529 Y92.830 E24.96965
G1 X60.529 Y88.601 E25.44672
G1 X53.029 Y88.601 E26.29292
G1 X53.029 Y82.830 E26.94412
G1 X60.529 Y82.830 E27.79033
G1 X60.529 Y78.601 E28.26739
G1 X59.029 Y78.601 E28.43664
G1 X59.029 Y76.830 E28.63653
G1 X60.529 Y76.830 E28.80577
G1 X60.529 Y72.601 E29.28284
G1 X53.029 Y72.601 E30.12904
G1 X53.029 Y70.830 E30.32893
G1 X60.529 Y70.830 E31.17513
G1 X60.529 Y66.601 E31.65220
G1 X59.029 Y66.601 E31.82144
G1 X59.029 Y62.830 E32.24699
G1 X64.800 Y62.830 E32.89819
G1 X64.800 Y66.601 E33.32374
G1 X63.300 Y66.601 E33.49298
G1 X63.300 Y70.830 E33.97005
G1 X70.800 Y70.830 E34.81625
G1 X70.800 Y72.601 E35.01614
G1 X63.300 Y72.601 E35.86234
G1 X63.300 Y76.830 E36.33941
G1 X64.800 Y76.830 E36.50865
G1 X64.800 Y78.601 E36.70855
G1 X63.300 Y78.601 E36.87779
G1 X63.300 Y82.830 E37.35486
G1 X70.800 Y82.830 E38.20106
G1 X70.800 Y88.601 E38.85226
G1 X63.360 Y88.601 E39.69169
G1 X64.014 Y89.316 F8400.000
G1 X64.014 Y92.116 E40.00761 F1800.000
G1 X65.514 Y92.116 E40.17685
G1 X65.514 Y95.316 E40.53789
G1 X64.014 Y95.316 E40.70713
G1 X64.014 Y98.116 E41.02305
G1 X71.514 Y98.116 E41.86925
G1 X71.514 Y101.316 E42.23030
G1 X64.014 Y101.316 E43.07650
G1 X64.014 Y104.116 E43.39241
G1 X65.514 Y104.116 E43.56165
G1 X65.514 Y105.316 E43.69705
G1 X58.314 Y105.316 E44.50940
G1 X58.314 Y104.116 E44.64479
G1 X59.814 Y104.116 E44.81403
G1 X59.814 Y101.316 E45.12995
G1 X52.314 Y101.316 E45.97615
G1 X52.314 Y98.116 E46.33720
G1 X59.814 Y98.116 E47.18340
G1 X59.814 Y95.316 E47.49931
G1 X58.314 Y95.316 E47.66855
G1 X58.314 Y92.116 E48.02960
G1 X59.814 Y92.116 E48.19884
G1 X59.814 Y89.316 E48.51476
G1 X52.314 Y89.316 E49.36096
G1 X52.314 Y82.116 E50.17331
G1 X59.814 Y82.116 E51.01951
G1 X59.814 Y79.316 E51.33543
G1 X58.314 Y79.316 E51.50467
G1 X58.314 Y76.116 E51.86572
G1 X59.814 Y76.116 E52.03496
G1 X59.814 Y73.316 E52.35087
G1 X52.314 Y73.316 E53.19707
G1 X52.314 Y70.116 E53.55812
G1 X59.814 Y70.116 E54.40432
G1 X59.814 Y67.316 E54.72024
G1 X58.314 Y67.316 E54.88948
G1 X58.314 Y62.116 E55.47618
G1 X65.514 Y62.116 E56.28853
G1 X65.514 Y67.316 E56.87523
G1 X64.014 Y67.316 E57.04447
G1 X64.014 Y70.116 E57.36039
G1 X71.514 Y70.116 E58.20659
G1 X71.514 Y73.316 E58.56764
G1 X64.014 Y73.316 E59.41384
G1 X64.014 Y76.116 E59.72975
G1 X65.514 Y76.116 E59.89899
G1 X65.514 Y79.316 E60.26004
G1 X64.014 Y79.316 E60.42928
G1 X64.014 Y82.116 E60.74520
G1 X71.514 Y82.116 E61.59140
G1 X71.514 Y89.316 E62.40375
G1 X64.074 Y89.316 E63.24318
G1 X63.614 Y89.316 F8400.000
G1 X61.914 Y87.530 F8400.000
G1 X61.914 Y103.530 E67.07063 F1800.000
G1 X60.171 Y104.716 F8400.000
G1 X58.671 Y104.716 E67.42945 F1800.000
G1 X63.657 Y104.716 F8400.000
G1 X65.157 Y104.716 E67.78827 F1800.000
G1 E63.78827 F2400.00000
G92 E0
G1 Z0.500 F8400.000
G1 X63.414 Y100.716 F8400.000
G1 X63.414 Y100.716 F8400.000
G1 X63.414 Y99.716 F8400.000
G1 X62.943 Y99.716 F8400.000
G1 Z0.300 F8400.000
G1 E4.00000 F2400.00000
G1 X70.443 Y99.716 E5.79411 F1800.000
G1 X61.914 Y98.716 F8400.000
G1 X61.914 Y93.716 F8400.000
G1 X63.414 Y93.716 F8400.000
G1 X63.914 Y93.716 F8400.000
G1 X64.443 Y93.716 F8400.000
G1 X62.943 Y93.716 E6.15293 F1800.000
G1 X60.886 Y93.716 F8400.000
G1 X59.386 Y93.716 E6.51176 F1800.000
G1 X60.886 Y99.716 F8400.000
G1 X53.386 Y99.716 E8.30587 F1800.000
G1 X60.414 Y99.716 F8400.000
G1 X61.914 Y92.716 F8400.000
G1 X60.414 Y85.716 F8400.000
G1 X55.914 Y85.716 F8400.000
G1 X52.914 Y88.716 F8400.000
G1 X54.178 Y87.109 F8400.000
G1 X54.521 Y87.452 E8.36083 F1800.000
G1 X55.536 Y87.452 E8.47578
G1 X54.178 Y86.094 E8.69330
G1 X54.178 Y85.080 E8.80825
G1 X56.550 Y87.452 E9.18834
G1 X57.564 Y87.452 E9.30328
G1 X54.178 Y84.066 E9.84592
G1 X55.106 Y83.979 E9.95155
G1 X58.579 Y87.452 E10.50801
G1 X59.593 Y87.452 E10.62296
G1 X56.121 Y83.979 E11.17942
G1 X57.135 Y83.979 E11.29437
G1 X60.607 Y87.452 E11.85083
G1 X61.265 Y87.095 F8400.000
G1 X58.149 Y83.979 E12.35007 F1800.000
G1 X59.164 Y83.979 E12.46502
G1 X62.279 Y87.095 E12.96425
G1 X63.651 Y87.452 E13.12484
G1 X60.178 Y83.979 E13.68131
G1 X60.679 Y84.480 E13.76154
G1 X61.550 Y84.337 E13.86155
G1 X64.665 Y87.452 E14.36079
G1 X65.679 Y87.452 E14.47573
G1 X62.564 Y84.337 E14.97497
G1 X63.221 Y83.979 F8400.000
G1 X66.694 Y87.452 E15.53143 F1800.000
G1 X67.708 Y87.452 E15.64638
G1 X64.236 Y83.979 E16.20284
G1 X65.250 Y83.979 E16.31779
G1 X68.722 Y87.452 E16.87425
G1 X69.651 Y87.366 E16.97988
G1 X66.264 Y83.979 E17.52252
G1 X67.279 Y83.979 E17.63747
G1 X69.651 Y86.351 E18.01755
G1 X69.651 Y85.337 E18.13250
G1 X68.293 Y83.979 E18.35003
G1 X69.308 Y83.979 E18.46497
G1 X69.651 Y84.322 E18.51994
G1 X61.914 Y83.901 F8400.000
G1 X61.914 Y65.530 E22.91451 F1800.000
G1 X60.521 Y65.452 F8400.000
G1 X60.178 Y65.109 E22.97220 F1800.000
G1 X60.178 Y64.044 E23.09883
G1 X61.229 Y65.095 E23.27554
G1 X62.293 Y65.095 E23.40217
G1 X61.178 Y63.979 E23.58976
G1 X62.243 Y63.979 E23.71639
G1 X63.651 Y65.387 E23.95316
G1 X63.150 Y64.886 E24.03737
G1 X63.308 Y63.979 E24.14686
G1 X63.651 Y64.322 E24.20455
G1 X62.943 Y71.716 F8400.000
G1 X70.443 Y71.716 E25.99867 F1800.000
G1 X61.914 Y72.716 F8400.000
