; generated by Slic3r 1.2.9 on 2017-02-08 at 23:55:26

; external perimeters extrusion width = 0.40mm
; perimeters extrusion width = 0.68mm
; infill extrusion width = 1.28mm
; solid infill extrusion width = 0.68mm
; top infill extrusion width = 0.68mm
; support material extrusion width = 0.40mm

M107
G28 ; home all axes
G29
G1 Z5 F5000 ; lift Z
G21 ; set units to millimeters
G90 ; use absolute coordinates
M82 ; use absolute distances for extrusion
G92 E0
G1 Z0.200 F8400.000
G1 E-3.00000 F2400.00000
G92 E0
G1 Z0.400 F8400.000
G1 X57.684 Y63.822 F8400.000
G1 Z0.200 F8400.000
G1 E3.00000 F2400.00000
G1 X70.033 Y52.663 E4.85665 F1800.000
G1 X70.966 Y51.959 E4.98693
G1 X71.887 Y51.383 E5.10822
G1 X72.928 Y50.851 E5.23852
G1 X73.935 Y50.443 E5.35980
G1 X75.052 Y50.100 E5.49010
G1 X76.115 Y49.872 E5.61143
G1 X76.733 Y49.770 E5.68130
G1 X102.040 Y46.784 E8.52378
G1 X102.827 Y46.737 E8.61171
G1 X133.488 Y46.737 E12.03188
G1 X134.355 Y46.794 E12.12880
G1 X157.937 Y49.864 E14.78159 F1800.000
G1 X159.007 Y50.094 E14.90367
G1 X160.043 Y50.406 E15.02439
G1 X161.123 Y50.836 E15.15407
G1 X162.090 Y51.323 E15.27478
G1 X163.079 Y51.933 E15.40446
G1 X163.948 Y52.579 E15.52519
G1 X164.817 Y53.351 E15.65486
G1 X165.561 Y54.137 E15.77557
G1 X166.284 Y55.047 E15.90526
G1 X166.882 Y55.950 E16.02603
G1 X167.437 Y56.971 E16.15565
G1 X167.869 Y57.963 E16.27637
G1 X168.240 Y59.064 E16.40604
G1 X168.496 Y60.117 E16.52685
G1 X168.670 Y61.265 E16.65645
G1 X168.754 Y62.779 E16.82555
G1 X168.748 Y139.826 E25.41998
G1 X168.704 Y141.158 E25.56874
G1 X168.559 Y142.317 E25.69894
G1 X168.332 Y143.380 E25.82023
G1 X167.989 Y144.497 E25.95053
G1 X167.580 Y145.506 E26.07197
G1 X167.049 Y146.545 E26.20211
G1 X166.472 Y147.467 E26.32351
G1 X165.769 Y148.399 E26.45369
G1 X165.041 Y149.206 E26.57498
G1 X164.187 Y150.003 E26.70528
G1 X163.330 Y150.672 E26.82657
G1 X162.350 Y151.309 E26.95687
G1 X161.390 Y151.820 E27.07824
G1 X160.316 Y152.276 E27.20844
G1 X159.282 Y152.613 E27.32972
G1 X158.144 Y152.877 E27.46003
G1 X157.067 Y153.029 E27.58132
G1 X156.170 Y153.095 E27.68162
G1 X130.782 Y153.263 E30.51369
G1 X100.121 Y153.263 E33.93386
G1 X78.380 Y153.103 E36.35910
G1 X76.917 Y153.019 E36.52264
G1 X75.768 Y152.844 E36.65230
G1 X74.716 Y152.589 E36.77302
G1 X73.614 Y152.218 E36.90271
G1 X72.622 Y151.785 E37.02343
G1 X71.601 Y151.230 E37.15310
G1 X70.698 Y150.633 E37.27381
G1 X69.803 Y149.924 E37.40119
G1 X39.902 Y121.791 E41.98087
G1 X38.746 Y120.640 E42.16284
G1 X38.119 Y119.916 E42.26970
G1 X37.264 Y118.774 E42.42885
G1 X36.746 Y117.968 E42.53571
G1 X36.062 Y116.715 E42.69487
G1 X35.664 Y115.844 E42.80173
G1 X35.116 Y114.369 E42.97721
G1 X31.624 Y104.346 E44.16124
G1 X31.334 Y103.188 E44.29434
G1 X31.246 Y102.089 E44.41740
G1 X31.256 Y99.527 E44.70312
G1 X31.354 Y98.420 E44.82705
G1 X31.637 Y97.311 E44.95472
G1 X35.115 Y87.319 E46.13500
G1 X35.664 Y85.843 E46.31064
G1 X36.062 Y84.972 E46.41749
G1 X36.335 Y84.471 E46.48116
G1 X36.746 Y83.719 E46.57665
G1 X37.264 Y82.913 E46.68351
G1 X38.119 Y81.771 E46.84267
G1 X38.746 Y81.047 E46.94952
G1 X40.000 Y79.805 E47.14647
G1 X57.639 Y63.862 E49.79864
G1 F6720
G1 X63.872 Y58.230 E46.94864
G1 E46.79864 F2400.00000
G92 E0
G1 Z0.400 F8400.000
G1 X134.142 Y120.216 F8400.000
G1 Z0.200 F8400.000
G1 E3.00000 F2400.00000
G1 X134.142 Y116.694 E3.39283 F1800.000
G1 X134.160 Y116.476 E3.41723
G1 X134.219 Y116.248 E3.44350
G1 X134.315 Y116.033 E3.46978
G1 X134.446 Y115.837 E3.49606
G1 X134.608 Y115.666 E3.52234
G1 X134.796 Y115.524 E3.54862
G1 X135.005 Y115.416 E3.57490
G1 X135.230 Y115.345 E3.60118
G1 X135.440 Y115.315 E3.62485 F1800.000
G1 X135.695 Y115.318 E3.65331
G1 X135.930 Y115.364 E3.67999
G1 X136.150 Y115.448 E3.70626
G1 X136.353 Y115.568 E3.73254
G1 X136.520 Y115.709 E3.75694
G1 X157.407 Y136.596 E7.05201
G1 X157.909 Y136.863 E7.11534
G1 X158.432 Y137.268 E7.18914
G1 X158.879 Y137.755 E7.26294
G1 X159.238 Y138.311 E7.33674
G1 X159.497 Y138.920 E7.41054
G1 X159.650 Y139.563 E7.48434
G1 X159.692 Y140.224 E7.55814
G1 X159.630 Y140.808 E7.62375
G1 X159.443 Y141.515 E7.70523
G1 X159.156 Y142.115 E7.77943
G1 X158.774 Y142.655 E7.85323
G1 X158.307 Y143.123 E7.92703
G1 X157.766 Y143.505 E8.00083
G1 X157.170 Y143.790 E8.07463
G1 X156.533 Y143.971 E8.14843
G1 X155.875 Y144.041 E8.22223
G1 X155.215 Y143.999 E8.29603
G1 X154.571 Y143.846 E8.36983
G1 X153.963 Y143.586 E8.44363
G1 X153.407 Y143.228 E8.51743
G1 X152.919 Y142.780 E8.59123
G1 X152.559 Y142.315 E8.65684
G1 X152.250 Y141.758 E8.72788
G1 X134.405 Y123.895 E11.54444
G1 X134.205 Y123.504 E11.59346
G1 X134.142 Y123.101 E11.63894
G1 X134.142 Y120.276 E11.95411
G1 X133.795 Y120.016 F8400.000
G1 X133.442 Y117.790 F8400.000
G1 X126.642 Y117.790 E12.71264 F1800.000
G1 X126.642 Y112.490 E13.30385
G1 X133.442 Y112.490 E14.06238
G1 X133.442 Y117.730 E14.64689
G1 X133.442 Y118.190 F8400.000
G1 F6720
G1 X126.642 Y117.790 E12.33966
G1 F6720
G1 X126.642 Y116.190 E11.79689
G1 E11.64689 F2400.00000
G92 E0
G1 Z0.400 F8400.000
G1 X126.042 Y118.390 F8400.000
G1 X125.065 Y119.876 F8400.000
G1 X124.165 Y120.082 F8400.000
G1 X123.731 Y120.128 F8400.000
G1 X123.456 Y120.139 F8400.000
G1 X123.397 Y119.390 F8400.000
G1 X109.002 Y116.234 F8400.000
G1 Z0.200 F8400.000
G1 E3.00000 F2400.00000
G1 X109.745 Y115.364 E3.12762 F1800.000
G1 X110.080 Y115.121 E3.17374
G1 X110.350 Y115.018 E3.20601
G1 X110.696 Y114.967 E3.24507
G1 X123.578 Y114.980 E4.68196
G1 X123.980 Y115.110 E4.72918
G1 X124.195 Y115.242 E4.75725
G1 X124.494 Y115.541 E4.80450
G1 X124.694 Y115.933 E4.85353
G1 X124.758 Y116.338 E4.89924
G1 X124.745 Y117.596 E5.03960
G1 X124.688 Y117.833 E5.06680
G1 X124.553 Y118.118 E5.10194
G1 X124.357 Y118.374 E5.13794
G1 X124.169 Y118.534 E5.16544
G1 X123.792 Y118.726 E5.21269
G1 X123.389 Y118.790 E5.25819
G1 X110.516 Y118.778 E6.69419
G1 X110.237 Y118.702 E6.72644
G1 X109.907 Y118.530 E6.76790
G1 X109.694 Y118.337 E6.79996
G1 X109.473 Y118.026 E6.84252
G1 X109.343 Y117.625 E6.88954
G1 X109.326 Y117.406 E6.91408
G1 X109.326 Y116.234 E7.04477
G1 X109.062 Y116.234 E7.07417
G1 X108.646 Y116.053 F8400.000
G1 X108.156 Y116.126 F8400.000
G1 X108.156 Y113.386 E7.37977 F1800.000
G1 X108.477 Y113.303 E7.41680
G1 X108.609 Y113.541 E7.44712
G1 X108.824 Y113.813 E7.48581
G1 X109.081 Y114.046 E7.52449
G1 X109.372 Y114.234 E7.56317
G1 X109.819 Y114.428 E7.61750
G1 X109.257 Y114.836 E7.69494
G1 X108.195 Y116.080 E7.87737
G1 X109.710 Y113.603 F8400.000
G1 X109.517 Y113.478 E7.90297 F1800.000
G1 X109.348 Y113.324 E7.92856
G1 X109.205 Y113.144 E7.95416
G1 X109.102 Y112.957 E7.97792
G1 X107.290 Y108.936 E8.46987
G1 X107.216 Y108.727 E8.49466
G1 X107.175 Y108.440 E8.52696
G1 X107.208 Y108.055 E8.57006
G1 X107.286 Y107.823 E8.59744
G1 X107.396 Y107.616 E8.62358
G1 X107.539 Y107.432 E8.64954
G1 X107.709 Y107.273 E8.67549
G1 X107.909 Y107.142 E8.70214
G1 X108.178 Y107.033 E8.73449
G1 X108.542 Y106.976 E8.77568
G1 X125.526 Y106.976 E10.67021 F1800.000
G1 X125.742 Y106.994 E10.69429
G1 X125.967 Y107.052 E10.72024
G1 X126.180 Y107.146 E10.74619
G1 X126.374 Y107.273 E10.77214
G1 X126.545 Y107.432 E10.79809
G1 X126.690 Y107.620 E10.82465
G1 X126.817 Y107.874 E10.85629
G1 X126.907 Y108.256 E10.90011
G1 X126.905 Y108.504 E10.92773
G1 X126.865 Y108.733 E10.95367
G1 X126.793 Y108.936 E10.97776
G1 X124.981 Y112.957 E11.46972
G1 X124.878 Y113.144 E11.49348
G1 X124.732 Y113.328 E11.51969
G1 X124.519 Y113.511 E11.55102
G1 X124.177 Y113.690 E11.59412
G1 X123.940 Y113.750 E11.62135
G1 X123.728 Y113.767 E11.64511
G1 X110.355 Y113.767 E13.13679
G1 X110.143 Y113.750 E13.16055
G1 X109.921 Y113.694 E13.18614
G1 X109.765 Y113.626 E13.20504
G1 X109.512 Y113.718 F8400.000
G1 X107.963 Y111.890 F8400.000
G1 X105.511 Y106.752 F8400.000
G1 X107.093 Y106.536 F8400.000
G1 X107.552 Y106.474 F8400.000
G1 X107.896 Y106.428 F8400.000
G1 X107.999 Y106.419 F8400.000
G1 X108.002 Y106.376 F8400.000
G1 X109.710 Y105.776 F8400.000
G1 X108.010 Y105.776 E13.39467 F1800.000
G1 X107.608 Y105.713 E13.44015
G1 X107.216 Y105.513 E13.48919
G1 X106.905 Y105.202 E13.53822
G1 X106.713 Y104.825 E13.58547
G1 X106.654 Y104.581 E13.61347
G1 X106.642 Y100.346 E14.08591
G1 X106.703 Y99.958 E14.12967
G1 X106.799 Y99.726 E14.15773
G1 X107.039 Y99.396 E14.20319
G1 X107.229 Y99.234 E14.23108
G1 X107.570 Y99.056 E14.27402
G1 X107.820 Y98.993 E14.30271
G1 X108.026 Y98.976 E14.32578
G1 X126.073 Y98.976 E16.33892 F1800.000
G1 X126.466 Y99.039 E16.38329
G1 X126.731 Y99.158 E16.41566
G1 X127.036 Y99.385 E16.45814
G1 X127.294 Y99.739 E16.50693
G1 X127.429 Y100.156 E16.55590
G1 X127.442 Y104.407 E17.03012
G1 X127.378 Y104.811 E17.07567
G1 X127.178 Y105.202 E17.12470
G1 X126.867 Y105.513 E17.17374
G1 X126.476 Y105.713 E17.22277
G1 X126.073 Y105.776 E17.26825
G1 X109.770 Y105.776 E19.08682
G1 X109.510 Y106.123 F8400.000
G1 X103.442 Y106.290 F8400.000
G1 X100.642 Y106.290 E19.39916 F1800.000
G1 X100.642 Y96.490 E20.49233
G1 X103.442 Y96.490 E20.80467
G1 X103.442 Y106.230 E21.89115
G1 X103.442 Y106.690 F8400.000
G1 X107.886 Y97.604 F8400.000
G1 X107.648 Y97.436 E21.92358 F1800.000
G1 X107.391 Y97.148 E21.96671
G1 X107.275 Y96.929 E21.99433
G1 X107.199 Y96.702 E22.02103
G1 X107.163 Y96.414 E22.05339
G1 X107.204 Y96.029 E22.09660
G1 X107.282 Y95.811 E22.12236
G1 X109.102 Y91.816 E22.61211
G1 X109.208 Y91.625 E22.63647
G1 X109.392 Y91.408 E22.66821
G1 X109.696 Y91.180 E22.71061
G1 X109.919 Y91.084 E22.73771
G1 X110.141 Y91.028 E22.76322
G1 X110.353 Y91.011 E22.78689
G1 X123.727 Y91.011 E24.27883 F1800.000
G1 X123.940 Y91.028 E24.30260
G1 X124.163 Y91.084 E24.32821
G1 X124.373 Y91.176 E24.35382
G1 X124.566 Y91.300 E24.37942
G1 X124.736 Y91.455 E24.40503
G1 X124.878 Y91.635 E24.43064
G1 X124.981 Y91.821 E24.45441
G1 X126.779 Y95.817 E24.94316
G1 X126.851 Y96.021 E24.96723
G1 X126.891 Y96.250 E24.99317
G1 X126.893 Y96.482 E25.01911
G1 X126.856 Y96.712 E25.04505
G1 X126.781 Y96.934 E25.07118
G1 X126.672 Y97.138 E25.09697
G1 X126.530 Y97.321 E25.12288
G1 X126.359 Y97.480 E25.14882
G1 X126.165 Y97.607 E25.17476
G1 X125.952 Y97.701 E25.20070
G1 X125.727 Y97.759 E25.22664
G1 X125.512 Y97.776 E25.25072
G1 X108.546 Y97.776 E27.14319
G1 X108.331 Y97.758 E27.16733
G1 X108.105 Y97.701 E27.19333
G1 X107.941 Y97.628 E27.21335
G1 X107.631 Y97.743 F8400.000
G1 F6720
G1 X107.648 Y97.436 E27.09467
G1 F6720
G1 X107.391 Y97.148 E26.96350
G1 F6720
G1 X107.275 Y96.929 E26.87947
G1 F6720
G1 X107.199 Y96.702 E26.79826
G1 F6720
G1 X107.163 Y96.414 E26.69984
G1 F6720
G1 X107.204 Y96.029 E26.56843
G1 F6720
G1 X107.282 Y95.811 E26.49006
G1 F6720
G1 X109.102 Y91.816 E25.00044
G1 F6720
G1 X109.208 Y91.625 E24.92634
G1 F6720
G1 X109.392 Y91.408 E24.82980
G1 F6720
G1 X109.696 Y91.180 E24.70086
G1 F6720
G1 X109.919 Y91.084 E24.61841
G1 F6720
G1 X110.141 Y91.028 E24.54083
G1 F6720
G1 X110.353 Y91.011 E24.46882
G1 E24.21335 F2400.00000
G92 E0
G1 Z0.400 F8400.000
G1 X108.566 Y91.545 F8400.000
G1 X108.614 Y90.535 F8400.000
G1 X108.616 Y89.888 F8400.000
G1 X108.509 Y89.499 F8400.000
G1 X108.447 Y89.185 F8400.000
G1 X108.821 Y89.030 F8400.000
G1 X109.002 Y86.278 F8400.000
G1 Z0.200 F8400.000
G1 E3.00000 F2400.00000
G1 X109.735 Y85.420 E3.12585 F1800.000
G1 X109.906 Y85.273 E3.15103
G1 X110.144 Y85.137 E3.18153
G1 X110.493 Y85.028 E3.22233
G1 X110.710 Y85.011 E3.24666
G1 X123.578 Y85.023 E4.68202
G1 X123.996 Y85.159 E4.73103
G1 X124.338 Y85.408 E4.77828
G1 X124.502 Y85.599 E4.80634
G1 X124.694 Y85.977 E4.85359
G1 X124.758 Y86.381 E4.89920
G1 X124.746 Y88.541 E5.14016
G1 X125.084 Y88.541 E5.17790
G1 X124.338 Y89.414 E5.30598
G1 X124.009 Y89.653 E5.35144
G1 X123.776 Y89.750 E5.37951
G1 X123.389 Y89.811 E5.42322
G1 X110.506 Y89.799 E6.86034
G1 X110.088 Y89.663 E6.90935
G1 X109.732 Y89.404 E6.95839
G1 X109.483 Y89.062 E7.00563
G1 X109.387 Y88.829 E7.03370
G1 X109.326 Y88.442 E7.07739
G1 X109.326 Y86.278 E7.31883
G1 X109.062 Y86.278 E7.34823
G1 X108.646 Y86.096 F8400.000
G1 X108.156 Y86.169 F8400.000
G1 X108.156 Y84.515 E7.53275 F1800.000
G1 X109.694 Y84.516 E7.70434
G1 X109.228 Y84.914 E7.77267
G1 X108.195 Y86.124 E7.95018
G1 F6720
G1 X108.156 Y84.515 E7.40426
G1 F6720
G1 X109.694 Y84.516 E6.88235
G1 F6720
G1 X109.228 Y84.914 E6.67451
G1 F6720
G1 X108.195 Y86.124 E6.13460
G1 E4.95018 F2400.00000
G92 E0
G1 Z0.400 F8400.000
G1 X108.042 Y86.479 F8400.000
G1 X101.838 Y84.197 F8400.000
G1 X101.874 Y84.276 F8400.000
G1 Z0.200 F8400.000
G1 E3.00000 F2400.00000
G1 X100.656 Y84.276 E3.13591 F1800.000
G1 X100.656 Y82.807 E3.29973
G1 X101.017 Y82.750 E3.34056
G1 X101.221 Y83.377 E3.41408
G1 X101.839 Y84.227 E3.53135
G1 X100.642 Y84.990 F8400.000
G1 X107.442 Y84.990 E4.28988 F1800.000
G1 X107.442 Y90.290 E4.88109
G1 X100.642 Y90.290 E5.63962
G1 X100.642 Y85.050 E6.22413
G1 X100.642 Y84.590 F8400.000
G1 X102.124 Y83.404 F8400.000
G1 X101.865 Y83.049 E6.27316 F1800.000
G1 X101.730 Y82.631 E6.32213
G1 X101.717 Y78.380 E6.79635
G1 X101.781 Y77.977 E6.84190
G1 X101.973 Y77.599 E6.88915
G1 X102.126 Y77.420 E6.91544
G1 X102.305 Y77.268 E6.94163
G1 X102.648 Y77.091 E6.98467
G1 X102.895 Y77.027 E7.01311
G1 X103.101 Y77.011 E7.03626 F1800.000
G1 X131.337 Y77.023 E10.18588
G1 X131.755 Y77.159 E10.23491
G1 X132.111 Y77.417 E10.28394
G1 X132.369 Y77.773 E10.33298
G1 X132.505 Y78.191 E10.38201
G1 X132.505 Y82.631 E10.87724
G1 X132.369 Y83.049 E10.92627
G1 X132.120 Y83.391 E10.97352
G1 X131.929 Y83.555 E11.00158
G1 X131.551 Y83.747 E11.04883
G1 X131.148 Y83.811 E11.09432
G1 X102.897 Y83.799 E14.24571
G1 X102.479 Y83.663 E14.29473
G1 X102.172 Y83.440 E14.33707
G1 X101.732 Y83.488 F8400.000
G1 X124.521 Y84.522 F8400.000
G1 X125.928 Y84.523 E14.49399 F1800.000
G1 X125.928 Y87.827 E14.86251
G1 X125.464 Y87.827 E14.91424
G1 X125.472 Y86.326 E15.08158
G1 X125.382 Y85.753 E15.14631
G1 X125.100 Y85.200 E15.21560
G1 X124.560 Y84.568 E15.30831
G1 X126.642 Y84.990 F8400.000
G1 X133.442 Y84.990 E16.06684 F1800.000
G1 X133.442 Y90.290 E16.65805
G1 X126.642 Y90.290 E17.41658
G1 X126.642 Y85.050 E18.00109
G1 X126.642 Y84.590 F8400.000
G1 X126.042 Y90.890 F8400.000
G1 X128.846 Y98.842 F8400.000
G1 X128.574 Y106.746 F8400.000
G1 X129.835 Y109.306 F8400.000
G1 X132.528 Y110.876 F8400.000
G1 X134.254 Y111.890 F8400.000
G1 X159.622 Y137.142 F8400.000
G1 X160.607 Y139.451 F8400.000
G1 X160.562 Y141.095 F8400.000
G1 X159.677 Y143.071 F8400.000
G1 X156.686 Y144.924 F8400.000
G1 X153.590 Y144.485 F8400.000
G1 X151.367 Y142.236 F8400.000
G1 X133.192 Y123.873 F8400.000
G1 X132.823 Y123.165 F8400.000
G1 X131.634 Y120.298 F8400.000
G1 X133.542 Y118.390 F8400.000
G1 X132.713 Y119.219 F8400.000
G1 X132.713 Y122.904 E18.41223 F1800.000
G1 X129.871 Y120.062 E18.86062
G1 X124.580 Y120.062 E19.45085
G1 X125.399 Y119.362 E19.57108
G1 X125.509 Y119.219 E19.59121
G1 X132.653 Y119.219 E20.38815
G1 X133.848 Y124.707 F8400.000
G1 X152.790 Y143.975 F8400.000
G1 X155.205 Y144.975 F8400.000
G1 X158.228 Y144.352 F8400.000
G1 X159.972 Y142.629 F8400.000
G1 X160.536 Y139.056 F8400.000
G1 X158.715 Y136.248 F8400.000
G1 X136.939 Y114.795 F8400.000
G1 X134.042 Y111.677 F8400.000
G1 X130.042 Y109.390 F8400.000
G1 X129.560 Y108.920 F8400.000
G1 X129.133 Y108.239 F8400.000
G1 X129.001 Y107.988 F8400.000
G1 X129.213 Y107.719 F8400.000
G1 X133.727 Y107.719 E20.89162 F1800.000
G1 X133.823 Y108.015 E20.92635
G1 X133.526 Y108.231 E20.96735
G1 X133.001 Y108.952 E21.06685
G1 X132.735 Y109.771 E21.16290
G1 X132.692 Y111.062 E21.30695
G1 X127.402 Y111.062 E21.89711
G1 X128.120 Y109.469 E22.09199
G1 X128.251 Y109.097 E22.13597
G1 X128.333 Y108.634 E22.18845
G1 X128.337 Y108.095 E22.24856
G1 X128.169 Y107.384 E22.33009
G1 X127.906 Y106.858 E22.39569
G1 X127.748 Y106.653 E22.42458
