; generated by Slic3r 1.2.9 on 2017-02-06 at 14:51:31

; external perimeters extrusion width = 0.40mm
; perimeters extrusion width = 0.68mm
; infill extrusion width = 1.28mm
; solid infill extrusion width = 0.68mm
; top infill extrusion width = 0.68mm
; support material extrusion width = 0.40mm

M107
G28 ; home all axes
G29
G1 Z5 F5000 ; lift Z
G21 ; set units to millimeters
G90 ; use absolute coordinates
M82 ; use absolute distances for extrusion
G92 E0
G1 Z0.200 F8400.000
G1 E-3.00000 F2400.00000
G92 E0
G1 Z0.400 F8400.000
G1 X52.095 Y51.721 F8400.000
G1 Z0.200 F8400.000
G1 E3.00000 F2400.00000
G1 X52.887 Y50.996 E3.12256 F1800.000
G1 X53.815 Y50.277 E3.25658
G1 X54.715 Y49.703 E3.37837
G1 X55.574 Y49.247 E3.48931
G1 X55.760 Y49.151 E3.51322
G1 X56.738 Y48.744 E3.63418
G1 X57.869 Y48.379 E3.76980
G1 X58.897 Y48.148 E3.88999
G1 X60.289 Y47.959 E4.05042
G1 X84.445 Y45.693 E6.81939
G1 X85.073 Y45.663 E6.89105
G1 X115.734 Y45.663 E10.39030
G1 X116.382 Y45.695 E10.46433
G1 X139.911 Y47.976 E13.16226 F1800.000
G1 X141.285 Y48.182 E13.32085
G1 X141.962 Y48.327 E13.39985
G1 X142.517 Y48.492 E13.46597
G1 X143.441 Y48.811 E13.57745
G1 X144.044 Y49.052 E13.65163
G1 X144.601 Y49.329 E13.72258
G1 X145.455 Y49.802 E13.83406
G1 X145.973 Y50.121 E13.90349
G1 X146.509 Y50.512 E13.97918
G1 X147.268 Y51.126 E14.09066
G1 X147.769 Y51.573 E14.16725
G1 X148.184 Y52.008 E14.23579
G1 X148.826 Y52.744 E14.34727
G1 X149.217 Y53.236 E14.41906
G1 X149.575 Y53.770 E14.49239
G1 X150.315 Y55.028 E14.65891
G1 X150.641 Y55.746 E14.74897
G1 X150.994 Y56.657 E14.86045
G1 X151.171 Y57.172 E14.92263
G1 X151.350 Y57.876 E15.00557
G1 X151.620 Y59.332 E15.17452
G1 X151.681 Y60.097 E15.26213
G1 X151.703 Y61.219 E15.39017
G1 X151.707 Y138.720 E24.23518
G1 X151.655 Y139.556 E24.33079
G1 X151.489 Y140.740 E24.46728
G1 X151.258 Y141.769 E24.58754
G1 X150.893 Y142.899 E24.72310
G1 X150.487 Y143.874 E24.84369
G1 X149.934 Y144.922 E24.97889
G1 X149.360 Y145.822 E25.10070
G1 X148.641 Y146.750 E25.23471
G1 X147.922 Y147.537 E25.35630
G1 X147.052 Y148.328 E25.49051
G1 X146.196 Y148.988 E25.61390
G1 X146.038 Y149.090 E25.63537
G1 X145.216 Y149.609 E25.74632
G1 X144.255 Y150.113 E25.87011
G1 X143.186 Y150.555 E26.00211
G1 X142.143 Y150.888 E26.12711
G1 X141.024 Y151.136 E26.25791
G1 X140.398 Y151.244 E26.33047
G1 X115.763 Y154.286 E29.16335
G1 X114.940 Y154.337 E29.25744
G1 X84.279 Y154.337 E32.75669
G1 X83.429 Y154.283 E32.85392
G1 X59.760 Y151.261 E35.57713
G1 X59.202 Y151.173 E35.64158
G1 X58.244 Y150.983 E35.75306
G1 X57.440 Y150.772 E35.84793
G1 X56.113 Y150.274 E36.00964
G1 X55.488 Y149.995 E36.08776
G1 X54.973 Y149.713 E36.15476
G1 X54.137 Y149.208 E36.26624
G1 X53.519 Y148.787 E36.35151
G1 X53.111 Y148.458 E36.41137
G1 X52.375 Y147.816 E36.52285
G1 X51.868 Y147.326 E36.60331
G1 X51.494 Y146.901 E36.66797
G1 X50.879 Y146.142 E36.77945
G1 X50.488 Y145.606 E36.85515
G1 X50.169 Y145.088 E36.92457
G1 X49.696 Y144.234 E37.03605
G1 X49.419 Y143.677 E37.10698
G1 X49.178 Y143.073 E37.18118
G1 X48.860 Y142.150 E37.29265
G1 X48.694 Y141.595 E37.35878
G1 X48.550 Y140.918 E37.43773
G1 X48.385 Y139.859 E37.56010
G1 X48.332 Y139.420 E37.61058
G1 X48.302 Y138.792 E37.68226
G1 X48.293 Y61.143 E46.54420
G1 X48.352 Y59.703 E46.70870
G1 X48.501 Y58.613 E46.83421
G1 X48.749 Y57.494 E46.96506
G1 X49.082 Y56.451 E47.09001
G1 X49.524 Y55.384 E47.22180
G1 X50.028 Y54.421 E47.34581
G1 X50.547 Y53.599 E47.45675
G1 X50.649 Y53.441 E47.47824
G1 X51.309 Y52.585 E47.60161
G1 X52.054 Y51.765 E47.72801
G1 F6720
G1 X52.887 Y50.996 E47.34335
G1 F6720
G1 X53.815 Y50.277 E46.94495
G1 F6720
G1 X54.715 Y49.703 E46.58287
G1 F6720
G1 X55.574 Y49.247 E46.25304
G1 F6720
G1 X55.760 Y49.151 E46.18197
G1 F6720
G1 X56.738 Y48.744 E45.82239
G1 F6720
G1 X57.869 Y48.379 E45.41919
G1 F6720
G1 X58.897 Y48.148 E45.06189
G1 F6720
G1 X59.434 Y48.075 E44.87801
G1 E44.72801 F2400.00000
G92 E0
G1 Z0.400 F8400.000
G1 X117.195 Y112.626 F8400.000
G1 Z0.200 F8400.000
G1 E3.00000 F2400.00000
G1 X135.978 Y131.535 E6.04178 F1800.000
G1 X131.876 Y135.637 E6.70380
G1 X117.195 Y120.806 E9.08542
G1 X117.195 Y112.686 E10.01220
G1 X117.396 Y112.280 F8400.000
G1 X116.402 Y110.735 F8400.000
G1 X116.402 Y116.035 E10.61707 F1800.000
G1 X109.602 Y116.035 E11.39313
G1 X109.602 Y110.735 E11.99800
G1 X116.342 Y110.735 E12.76721
G1 X116.802 Y110.735 F8400.000
G1 X116.402 Y104.535 F8400.000
G1 X112.102 Y104.535 E13.25795 F1800.000
G1 X112.102 Y94.735 E14.37639
G1 X116.402 Y94.735 E14.86713
G1 X116.402 Y104.475 E15.97873
G1 X116.402 Y104.935 F8400.000
G1 F6720
G1 X112.102 Y104.535 E14.51968
G1 F6720
G1 X112.102 Y100.435 E13.12873
G1 E12.97873 F2400.00000
G92 E0
G1 Z0.400 F8400.000
G1 X111.502 Y96.621 F8400.000
G1 X111.502 Y96.518 F8400.000
G1 X110.621 Y96.021 F8400.000
G1 Z0.200 F8400.000
G1 E3.00000 F2400.00000
G1 X89.347 Y96.021 E5.42785 F1800.000
G1 X92.429 Y89.256 E6.27629
G1 X107.577 Y89.256 E8.00509
G1 X110.596 Y95.966 E8.84492
G1 X110.677 Y96.417 F8400.000
G1 X107.718 Y88.056 F8400.000
G1 X92.286 Y88.056 E10.60614 F1800.000
G1 X92.286 Y83.256 E11.15394
G1 X107.718 Y83.256 E12.91516
G1 X107.718 Y87.996 E13.45612
G1 X107.718 Y88.456 F8400.000
G1 X107.718 Y82.056 F8400.000
G1 X92.286 Y82.056 E15.21733 F1800.000
G1 X92.286 Y75.256 E15.99339
G1 X107.718 Y75.256 E17.75461
G1 X107.718 Y81.996 E18.52382
G1 X107.718 Y82.456 F8400.000
G1 X91.686 Y82.656 F8400.000
G1 X91.344 Y88.656 F8400.000
G1 X91.002 Y89.664 F8400.000
G1 X88.502 Y92.510 F8400.000
G1 X88.502 Y94.135 F8400.000
G1 X87.902 Y94.735 F8400.000
G1 X87.902 Y104.535 E19.64226 F1800.000
G1 X83.602 Y104.535 E20.13300
G1 X83.602 Y94.735 E21.25145
G1 X87.842 Y94.735 E21.73534
G1 X88.302 Y94.735 F8400.000
G1 X89.602 Y97.221 F8400.000
G1 X110.402 Y97.221 E24.10919 F1800.000
G1 X110.402 Y104.021 E24.88525
G1 X89.602 Y104.021 E27.25909
G1 X89.602 Y97.281 E28.02830
G1 X89.602 Y96.821 F8400.000
G1 X89.368 Y105.221 F8400.000
G1 X110.637 Y105.221 E30.45567 F1800.000
G1 X107.577 Y112.012 E31.30573
G1 X92.428 Y112.012 E33.03465
G1 X89.392 Y105.276 E33.87786
G1 X89.311 Y104.825 F8400.000
G1 F6720
G1 X97.792 Y105.254 E31.02786
G1 E30.87786 F2400.00000
G92 E0
G1 Z0.400 F8400.000
G1 X107.964 Y112.612 F8400.000
G1 X108.318 Y112.612 F8400.000
G1 X109.002 Y117.319 F8400.000
G1 X113.703 Y118.275 F8400.000
G1 X115.587 Y121.053 F8400.000
G1 X115.984 Y121.658 F8400.000
G1 X131.302 Y137.054 F8400.000
G1 X131.907 Y137.627 F8400.000
G1 Z0.200 F8400.000
G1 E3.00000 F2400.00000
G1 X138.075 Y131.458 E3.99568 F1800.000
G1 X141.730 Y135.112 E4.58556
G1 X142.296 Y135.751 E4.68293
G1 X142.697 Y136.402 E4.77019
G1 X142.979 Y137.112 E4.85731
G1 X143.135 Y137.859 E4.94444
G1 X143.160 Y138.622 E5.03157
G1 X143.054 Y139.378 E5.11869
G1 X142.818 Y140.104 E5.20582
G1 X142.461 Y140.779 E5.29294
G1 X141.989 Y141.387 E5.38086
G1 X141.430 Y141.895 E5.46708
G1 X140.784 Y142.304 E5.55434
G1 X140.078 Y142.596 E5.64147
G1 X139.333 Y142.761 E5.72859
G1 X138.570 Y142.796 E5.81572
G1 X137.813 Y142.699 E5.90285
G1 X137.084 Y142.472 E5.98997
G1 X136.405 Y142.124 E6.07710
G1 X135.761 Y141.637 E6.16927
G1 X135.588 Y141.469 E6.19673
G1 X135.264 Y141.099 E6.25283
G1 X134.977 Y140.697 E6.30929
G1 X131.949 Y137.669 E6.79799
G1 X115.767 Y121.487 F8400.000
G1 X112.886 Y118.607 E7.26293 F1800.000
G1 X109.146 Y118.607 E7.68978
G1 X109.146 Y117.463 E7.82028
G1 X115.767 Y117.463 E8.57588
G1 X115.767 Y121.427 E9.02830
G1 X131.302 Y137.054 F8400.000
G1 X137.950 Y137.627 F8400.000
G1 X138.075 Y132.787 F8400.000
G1 X117.384 Y110.135 F8400.000
G1 X117.002 Y109.753 F8400.000
G1 X115.913 Y109.302 F8400.000
G1 X115.674 Y109.307 F8400.000
G1 X110.362 Y109.307 E9.63449 F1800.000
G1 X111.869 Y105.963 E10.05302
G1 X115.674 Y105.963 E10.48727
G1 X115.674 Y109.247 E10.86200
G1 X115.913 Y109.302 F8400.000
G1 X117.384 Y110.135 F8400.000
G1 X137.452 Y130.914 F8400.000
G1 X133.013 Y137.627 F8400.000
G1 X115.587 Y121.053 F8400.000
G1 X112.543 Y118.035 F8400.000
G1 X86.150 Y118.275 F8400.000
G1 X68.648 Y137.006 F8400.000
G1 X62.004 Y137.562 F8400.000
G1 X62.004 Y132.660 F8400.000
G1 X83.002 Y109.815 F8400.000
G1 X86.002 Y107.635 F8400.000
G1 X87.055 Y107.635 F8400.000
G1 X90.924 Y110.135 F8400.000
G1 X89.642 Y109.307 F8400.000
G1 X84.330 Y109.307 E11.46820 F1800.000
G1 X84.330 Y105.963 E11.84978
G1 X88.135 Y105.963 E12.28403
G1 X89.617 Y109.252 E12.69571
G1 X84.029 Y109.390 F8400.000
G1 X82.683 Y110.135 F8400.000
G1 X62.004 Y132.660 F8400.000
G1 X67.012 Y137.551 F8400.000
G1 X84.048 Y121.606 F8400.000
G1 X87.310 Y118.035 F8400.000
G1 X90.686 Y117.635 F8400.000
G1 X91.002 Y117.319 F8400.000
G1 X90.858 Y117.463 F8400.000
G1 X90.858 Y118.607 E12.82620 F1800.000
G1 X86.967 Y118.607 E13.27026
G1 X84.330 Y121.243 E13.69580
G1 X84.330 Y117.463 E14.12719
G1 X90.798 Y117.463 E14.86530
G1 X68.022 Y137.551 F8400.000
G1 X65.251 Y140.323 E15.31259 F1800.000
G1 X64.818 Y140.991 E15.40345
G1 X64.304 Y141.575 E15.49220
G1 X63.708 Y142.053 E15.57939
G1 X63.039 Y142.421 E15.66656
G1 X62.317 Y142.669 E15.75373
G1 X61.562 Y142.788 E15.84090
G1 X60.799 Y142.775 E15.92806
G1 X60.049 Y142.631 E16.01522
G1 X59.335 Y142.360 E16.10237
G1 X58.685 Y141.974 E16.18862
G1 X58.043 Y141.413 E16.28596
G1 X57.572 Y140.821 E16.37229
G1 X57.207 Y140.150 E16.45944
G1 X56.963 Y139.426 E16.54659
G1 X56.848 Y138.672 E16.63374
G1 X56.864 Y137.908 E16.72090
G1 X57.012 Y137.159 E16.80807
G1 X57.286 Y136.446 E16.89523
G1 X57.680 Y135.791 E16.98240
G1 X58.181 Y135.213 E17.06971
G1 X58.957 Y134.580 E17.18400
G1 X62.004 Y131.533 E17.67582
G1 X67.980 Y137.509 E18.64030
G1 X68.103 Y136.622 F8400.000
G1 X83.616 Y121.108 E21.14420 F1800.000
G1 X83.616 Y116.749 E21.64172
G1 X91.116 Y116.749 E22.49767
G1 X91.116 Y111.664 E23.07803
G1 X91.455 Y111.591 E23.11754
G1 X91.863 Y112.498 E23.23103
G1 X91.572 Y112.498 E23.26427
G1 X91.572 Y117.749 E23.86358
G1 X108.432 Y117.749 E25.78781
G1 X108.432 Y112.498 E26.38712
G1 X108.141 Y112.498 E26.42037
G1 X108.549 Y111.591 E26.53386
G1 X108.888 Y111.664 E26.57337
G1 X108.888 Y116.749 E27.15372
G1 X116.481 Y116.749 E28.02033
G1 X116.481 Y121.100 E28.51688
G1 X131.874 Y136.649 E31.01394
G1 X136.986 Y131.537 E31.83910
G1 X117.116 Y111.532 E35.05701
G1 X117.116 Y110.021 E35.22953
G1 X109.257 Y110.021 E36.12647
G1 X111.407 Y105.249 E36.72379
G1 X116.388 Y105.249 E37.29222
G1 X116.388 Y105.605 E37.33291
G1 X120.388 Y105.605 E37.78942
G1 X120.388 Y106.377 E37.87750
G1 X116.388 Y106.377 E38.33401
G1 X116.388 Y108.760 E38.60596
G1 X142.251 Y134.623 E42.78023
G1 X142.871 Y135.324 E42.88711
G1 X143.337 Y136.080 E42.98847
G1 X143.666 Y136.905 E43.08974
G1 X143.847 Y137.773 E43.19101
G1 X143.876 Y138.660 E43.29228
G1 X143.752 Y139.539 E43.39356
G1 X143.479 Y140.383 E43.49483
G1 X143.064 Y141.167 E43.59610
G1 X142.515 Y141.874 E43.69822
G1 X141.864 Y142.465 E43.79858
G1 X141.114 Y142.941 E43.89994
G1 X140.294 Y143.279 E44.00121
G1 X139.427 Y143.472 E44.10249
G1 X138.541 Y143.512 E44.20376
G1 X137.661 Y143.399 E44.30504
G1 X136.813 Y143.136 E44.40631
G1 X136.024 Y142.731 E44.50759
G1 X135.294 Y142.180 E44.61193
G1 X135.070 Y141.961 E44.64774
G1 X134.704 Y141.543 E44.71110
G1 X134.430 Y141.160 E44.76485
G1 X112.591 Y119.321 E48.28974
G1 X87.263 Y119.321 E51.18036
G1 X65.809 Y140.774 E54.64300
G1 X65.388 Y141.423 E54.73122
G1 X64.800 Y142.093 E54.83299
G1 X64.107 Y142.649 E54.93433
G1 X63.329 Y143.077 E55.03566
G1 X62.490 Y143.365 E55.13699
G1 X61.613 Y143.503 E55.23831
G1 X60.725 Y143.488 E55.33963
G1 X59.853 Y143.321 E55.44095
G1 X59.023 Y143.006 E55.54226
G1 X58.264 Y142.555 E55.64302
G1 X57.524 Y141.908 E55.75517
G1 X56.975 Y141.217 E55.85598
G1 X56.550 Y140.437 E55.95729
G1 X56.267 Y139.596 E56.05859
G1 X56.132 Y138.718 E56.15991
G1 X56.151 Y137.831 E56.26122
G1 X56.323 Y136.960 E56.36254
G1 X56.642 Y136.131 E56.46387
G1 X57.100 Y135.370 E56.56519
G1 X57.682 Y134.699 E56.66661
G1 X58.477 Y134.050 E56.78380
G1 X83.616 Y108.911 E60.84124
G1 X83.616 Y106.377 E61.13040
G1 X79.616 Y106.377 E61.58691
G1 X79.616 Y105.605 E61.67499
G1 X83.616 Y105.605 E62.13150
G1 X83.616 Y105.249 E62.17219
G1 X88.597 Y105.249 E62.74062
G1 X90.747 Y110.021 E63.33794
G1 X82.888 Y110.021 E64.23488
G1 X82.888 Y111.614 E64.41674
G1 X62.991 Y131.511 E67.62804
G1 X68.060 Y136.579 E68.44614
G1 X84.406 Y121.061 F8400.000
G1 X87.310 Y118.035 F8400.000
G1 X90.686 Y117.635 F8400.000
G1 X91.686 Y117.635 F8400.000
G1 X92.286 Y117.035 F8400.000
G1 X92.286 Y113.212 E68.88244 F1800.000
G1 X107.718 Y113.212 E70.64365
G1 X107.718 Y117.035 E71.07996
G1 X92.346 Y117.035 E72.83432
G1 X91.886 Y117.035 F8400.000
G1 X90.402 Y116.035 F8400.000
G1 X83.602 Y116.035 E73.61038 F1800.000
G1 X83.602 Y110.735 E74.21525
G1 X90.402 Y110.735 E74.99131
G1 X90.402 Y115.975 E75.58933
G1 X90.402 Y116.435 F8400.000
G1 X83.502 Y116.635 F8400.000
G1 X83.502 Y116.635 F8400.000
G1 X82.902 Y112.610 F8400.000
G1 X82.902 Y120.812 E76.52545 F1800.000
G1 X68.103 Y135.612 E78.91408
G1 X64.001 Y131.511 E79.57601
G1 X82.860 Y112.653 E82.61974
G1 X83.288 Y112.507 F8400.000
G1 X82.888 Y89.249 F8400.000
G1 X82.888 Y87.655 E82.80160 F1800.000
G1 X62.992 Y67.759 E86.01288
G1 X68.103 Y62.648 E86.83783
G1 X83.616 Y78.161 E89.34171
G1 X83.616 Y82.521 E89.83922
G1 X91.116 Y82.521 E90.69518
G1 X91.116 Y89.249 E91.46306
G1 X82.948 Y89.249 E92.39528
G1 X83.602 Y88.535 F8400.000
G1 X83.602 Y83.235 E93.00015 F1800.000
G1 X90.402 Y83.235 E93.77621
G1 X90.402 Y88.535 E94.38108
G1 X83.662 Y88.535 E95.15029
G1 X83.202 Y88.535 F8400.000
G1 X82.902 Y86.660 F8400.000
G1 X64.002 Y67.759 E98.20084 F1800.000
G1 X68.103 Y63.658 E98.86277
G1 X82.902 Y78.457 E101.25139
G1 X82.902 Y86.600 E102.18065
G1 X82.702 Y87.006 F8400.000
G1 X62.010 Y67.730 F8400.000
G1 X58.940 Y64.660 E102.67620 F1800.000
G1 X58.538 Y64.372 E102.73267
G1 X58.168 Y64.049 E102.78876
G1 X58.000 Y63.876 E102.81622
G1 X57.513 Y63.232 E102.90839
G1 X57.164 Y62.553 E102.99552
G1 X56.938 Y61.823 E103.08273
G1 X56.841 Y61.071 E103.16931
G1 X56.876 Y60.304 E103.25691
G1 X57.041 Y59.558 E103.34415
G1 X57.330 Y58.858 E103.43051
G1 X57.741 Y58.208 E103.51830
G1 X58.256 Y57.642 E103.60558
G1 X58.852 Y57.179 E103.69172
G1 X59.533 Y56.819 E103.77970
G1 X60.259 Y56.583 E103.86682
G1 X61.017 Y56.476 E103.95414
G1 X61.769 Y56.500 E104.04000
G1 X62.525 Y56.658 E104.12822
G1 X63.235 Y56.940 E104.21535
G1 X63.885 Y57.341 E104.30260
G1 X64.525 Y57.907 E104.39997
G1 X68.179 Y61.561 E104.98986
G1 X62.053 Y67.688 E105.97869
G1 X62.010 Y61.561 F8400.000
G1 X66.855 Y61.561 F8400.000
G1 X68.727 Y62.185 F8400.000
G1 X81.821 Y75.280 F8400.000
G1 X81.949 Y75.484 F8400.000
G1 X90.858 Y75.484 E106.99547 F1800.000
G1 X90.858 Y81.807 E107.71707
G1 X84.330 Y81.807 E108.46202
G1 X84.330 Y77.866 E108.91179
G1 X81.991 Y75.526 E109.28937
G1 X91.344 Y82.656 F8400.000
G1 X91.394 Y89.135 F8400.000
G1 X86.002 Y91.635 F8400.000
G1 X84.761 Y90.394 F8400.000
G1 X84.023 Y89.872 F8400.000
G1 X84.330 Y89.963 F8400.000
G1 X90.537 Y89.963 E109.99771 F1800.000
G1 X89.014 Y93.307 E110.41700
G1 X84.330 Y93.307 E110.95156
G1 X84.330 Y90.023 E111.32629
G1 X83.616 Y93.117 F8400.000
G1 X83.616 Y90.346 E111.64249 F1800.000
G1 X58.477 Y65.207 E115.70001
G1 X58.094 Y64.933 E115.75376
G1 X57.676 Y64.567 E115.81712
G1 X57.457 Y64.343 E115.85293
G1 X56.906 Y63.613 E115.95728
G1 X56.501 Y62.824 E116.05855
G1 X56.238 Y61.976 E116.15987
G1 X56.125 Y61.100 E116.26060
G1 X56.165 Y60.209 E116.36238
G1 X56.358 Y59.343 E116.46373
G1 X56.693 Y58.528 E116.56423
G1 X57.171 Y57.774 E116.66622
G1 X57.769 Y57.116 E116.76758
G1 X58.462 Y56.577 E116.86787
G1 X59.254 Y56.158 E116.97005
G1 X60.098 Y55.885 E117.07132
G1 X60.978 Y55.761 E117.17271
