; generated by Slic3r 1.2.9 on 2017-03-06 at 23:10:38

; external perimeters extrusion width = 0.40mm
; perimeters extrusion width = 0.68mm
; infill extrusion width = 1.28mm
; solid infill extrusion width = 0.68mm
; top infill extrusion width = 0.68mm
; support material extrusion width = 0.40mm

M107
G28 ; home all axes
G29
G1 Z5 F5000 ; lift Z
G21 ; set units to millimeters
G90 ; use absolute coordinates
M82 ; use absolute distances for extrusion
G92 E0
G1 Z0.700 F8400.000
G1 E-3.00000 F2400.00000
G92 E0
G1 Z0.900 F8400.000
G1 X70.882 Y78.130 F8400.000
G1 Z0.700 F8400.000
G1 E3.00000 F2400.00000
G1 X71.478 Y77.621 E3.02239 F1800.000
G1 X72.285 Y77.035 E3.05085
G1 X72.887 Y76.666 E3.07099
G1 X73.843 Y76.172 E3.10169
G1 X74.568 Y75.872 E3.12408
G1 X75.517 Y75.563 E3.15254
G1 X76.279 Y75.380 E3.17492
G1 X77.265 Y75.224 E3.20338
G1 X78.546 Y75.143 E3.24000
G1 X119.546 Y75.143 E4.40981
G1 X120.044 Y75.163 E4.42405
G1 X121.609 Y75.286 E4.46883
G1 X122.594 Y75.442 E4.49729
G1 X124.120 Y75.808 E4.54206
G1 X125.069 Y76.116 E4.57052
G1 X126.518 Y76.717 E4.61529
G1 X127.407 Y77.170 E4.64375
G1 X128.745 Y77.990 E4.68853
G1 X129.552 Y78.576 E4.71699
G1 X130.745 Y79.595 E4.76176
G1 X131.451 Y80.300 E4.79022
G1 X132.470 Y81.494 E4.83499
G1 X133.056 Y82.301 E4.86345
G1 X133.876 Y83.639 E4.90823
G1 X134.256 Y84.359 E4.93148
G1 X134.931 Y85.977 E4.98150
G1 X135.098 Y86.432 E4.99532
G1 X135.248 Y86.960 E5.01099
G1 X135.631 Y88.564 E5.05804
G1 X135.738 Y89.208 E5.07667
G1 X135.882 Y90.981 E5.12741
G1 X135.903 Y91.500 E5.14223
G1 X135.903 Y108.500 E5.62727
G1 X135.882 Y109.019 E5.64209
G1 X135.758 Y110.581 E5.68678
G1 X135.710 Y110.999 E5.69882
G1 X135.598 Y111.581 E5.71570
G1 X135.240 Y113.068 E5.75935
G1 X135.002 Y113.842 E5.78246
G1 X134.323 Y115.488 E5.83326
G1 X133.876 Y116.361 E5.86125
G1 X133.056 Y117.699 E5.90602
G1 X132.470 Y118.506 E5.93449
G1 X131.553 Y119.580 E5.97478
G1 X130.745 Y120.405 E6.00771
G1 X129.552 Y121.424 E6.05248
G1 X128.745 Y122.010 E6.08094
G1 X127.642 Y122.686 E6.11785
G1 X127.407 Y122.830 E6.12571
G1 X126.518 Y123.283 E6.15417
G1 X125.069 Y123.884 E6.19894
G1 X124.120 Y124.192 E6.22741
G1 X122.594 Y124.558 E6.27218
G1 X121.609 Y124.714 E6.30064
G1 X120.044 Y124.837 E6.34541
G1 X119.546 Y124.857 E6.35965
G1 X78.546 Y124.857 E7.52946
G1 X77.265 Y124.776 E7.56608
G1 X76.279 Y124.620 E7.59454
G1 X75.516 Y124.437 E7.61693
G1 X74.568 Y124.128 E7.64539
G1 X73.843 Y123.828 E7.66778
G1 X72.954 Y123.375 E7.69624
G1 X72.285 Y122.965 E7.71863
G1 X71.478 Y122.379 E7.74709
G1 X70.881 Y121.869 E7.76947
G1 X70.176 Y121.164 E7.79793
G1 X69.667 Y120.568 E7.82032
G1 X69.080 Y119.760 E7.84878
G1 X68.670 Y119.091 E7.87117
G1 X68.217 Y118.203 E7.89963
G1 X67.917 Y117.478 E7.92202
G1 X67.612 Y116.541 E7.95012
G1 X64.283 Y102.795 E8.35366
G1 X64.180 Y102.282 E8.36859
G1 X64.097 Y101.246 E8.39825
G1 X64.108 Y98.685 E8.47130
G1 X64.209 Y97.587 E8.50278
G1 X64.293 Y97.181 E8.51461
G1 X67.611 Y83.461 E8.91736
G1 X67.917 Y82.522 E8.94552
G1 X68.217 Y81.797 E8.96791
G1 X68.670 Y80.908 E8.99637
G1 X69.080 Y80.240 E9.01876
G1 X69.667 Y79.433 E9.04722
G1 X70.176 Y78.836 E9.06960
G1 X70.839 Y78.173 E9.09635
G1 F6720
G1 X71.478 Y77.621 E8.80983
G1 F6720
G1 X72.285 Y77.035 E8.47142
G1 F6720
G1 X72.887 Y76.666 E8.23184
G1 F6720
G1 X73.843 Y76.172 E7.86683
G1 F6720
G1 X74.568 Y75.872 E7.60061
G1 F6720
G1 X75.517 Y75.563 E7.26218
G1 F6720
G1 X76.279 Y75.380 E6.99596
G1 F6720
G1 X77.265 Y75.224 E6.65753
G1 F6720
G1 X78.474 Y75.147 E6.24635
G1 E6.09635 F2400.00000
G92 E0
G1 Z0.900 F8400.000
G1 X128.746 Y104.300 F8400.000
G1 Z0.700 F8400.000
G1 E3.00000 F2400.00000
G1 X123.246 Y104.300 E3.15692 F1800.000
G1 X123.246 Y95.700 E3.40230
G1 X128.746 Y95.700 E3.55922
G1 X128.746 Y104.240 E3.80288
G1 X128.746 Y104.700 F8400.000
G1 F6720
G1 X123.246 Y104.300 E1.93671
G1 F6720
G1 X123.246 Y101.400 E0.95288
G1 E0.80288 F2400.00000
G92 E0
G1 Z0.900 F8400.000
G1 X118.103 Y109.443 F8400.000
G1 Z0.700 F8400.000
G1 E3.00000 F2400.00000
G1 X118.103 Y116.557 E3.20298 F1800.000
G1 X112.489 Y116.557 E3.36316
G1 X112.489 Y109.443 E3.56614
G1 X118.043 Y109.443 E3.72461
G1 X117.746 Y109.800 F8400.000
G1 X117.746 Y116.200 E3.90721 F1800.000
G1 X112.846 Y116.200 E4.04702
G1 X112.846 Y109.800 E4.22962
G1 X117.686 Y109.800 E4.36771
G1 X118.146 Y109.800 F8400.000
G1 F6720
G1 X117.746 Y116.200 E2.19620
G1 F6720
G1 X115.746 Y116.200 E1.51771
G1 E1.36771 F2400.00000
G92 E0
G1 Z0.900 F8400.000
G1 X111.600 Y108.136 F8400.000
G1 Z0.700 F8400.000
G1 E3.00000 F2400.00000
G1 X109.658 Y108.640 E3.05724 F1800.000
G1 X107.512 Y109.092 E3.11981
G1 X105.265 Y109.426 E3.18464
G1 X102.950 Y109.638 E3.25095
G1 X100.599 Y109.726 E3.31809
G1 X98.241 Y109.687 E3.38536
G1 X95.909 Y109.523 E3.45208
G1 X93.634 Y109.235 E3.51751
G1 X90.704 Y108.709 E3.60243
G1 X101.546 Y100.824 E3.98491
G1 X111.551 Y108.101 E4.33791
G1 X110.779 Y107.980 F8400.000
G1 X109.576 Y108.293 E4.37335 F1800.000
G1 X107.449 Y108.740 E4.43538
G1 X105.222 Y109.072 E4.49961
G1 X102.927 Y109.282 E4.56537
G1 X100.595 Y109.368 E4.63195
G1 X98.257 Y109.330 E4.69868
G1 X95.944 Y109.167 E4.76484
G1 X93.688 Y108.882 E4.82972
G1 X91.591 Y108.505 E4.89050
G1 X101.546 Y101.265 E5.24169
G1 X110.730 Y107.945 E5.56572
G1 X110.965 Y108.335 F8400.000
G1 F6720
G1 X109.576 Y108.293 E5.15682
G1 F6720
G1 X107.449 Y108.740 E4.41928
G1 F6720
G1 X105.222 Y109.072 E3.65542
G1 F6720
G1 X102.927 Y109.282 E2.87352
G1 F6720
G1 X102.462 Y109.299 E2.71572
G1 E2.56572 F2400.00000
G92 E0
G1 Z0.900 F8400.000
G1 X101.546 Y99.176 F8400.000
G1 Z0.700 F8400.000
G1 E3.00000 F2400.00000
G1 X90.722 Y91.304 E3.38185 F1800.000
G1 X92.821 Y90.900 E3.44284
G1 X95.067 Y90.568 E3.50762
G1 X97.615 Y90.350 E3.58057
G1 X99.733 Y90.274 E3.64105
G1 X102.090 Y90.315 E3.70832
G1 X104.422 Y90.481 E3.77502
G1 X106.697 Y90.771 E3.84047
G1 X108.885 Y91.181 E3.90397
G1 X111.616 Y91.852 E3.98420
G1 X101.594 Y99.141 E4.33775
G1 X101.546 Y98.735 F8400.000
G1 X91.597 Y91.499 E4.68872 F1800.000
G1 X92.881 Y91.252 E4.72602
G1 X95.108 Y90.923 E4.79025
G1 X97.636 Y90.707 E4.86265
G1 X99.736 Y90.631 E4.92260
G1 X102.074 Y90.672 E4.98932
G1 X104.387 Y90.837 E5.05546
G1 X106.642 Y91.124 E5.12033
G1 X108.810 Y91.530 E5.18325
G1 X110.784 Y92.016 E5.24127
G1 X101.594 Y98.699 E5.56549
G1 X101.278 Y99.032 F8400.000
G1 F6720
G1 X94.778 Y93.790 E2.71549
G1 E2.56549 F2400.00000
G92 E0
G1 Z0.900 F8400.000
G1 X96.489 Y86.557 F8400.000
G1 Z0.700 F8400.000
G1 E3.00000 F2400.00000
G1 X96.489 Y83.443 E3.08885 F1800.000
G1 X106.603 Y83.443 E3.37743
G1 X106.603 Y86.557 E3.46628
G1 X96.549 Y86.557 E3.75314
G1 X96.846 Y86.200 F8400.000
G1 X96.846 Y83.800 E3.82162 F1800.000
G1 X106.246 Y83.800 E4.08982
G1 X106.246 Y86.200 E4.15829
G1 X96.906 Y86.200 E4.42478
G1 X96.446 Y86.200 F8400.000
G1 F6720
G1 X96.846 Y83.800 E3.61025
G1 F6720
G1 X102.845 Y83.800 E1.57478
G1 E1.42478 F2400.00000
G92 E0
G1 Z0.900 F8400.000
G1 X90.603 Y83.443 F8400.000
G1 Z0.700 F8400.000
G1 E3.00000 F2400.00000
G1 X90.603 Y90.557 E3.20298 F1800.000
G1 X84.989 Y90.557 E3.36316
G1 X84.989 Y83.443 E3.56614
G1 X90.543 Y83.443 E3.72461
G1 X90.246 Y83.800 F8400.000
G1 X90.246 Y90.200 E3.90721 F1800.000
G1 X85.346 Y90.200 E4.04702
G1 X85.346 Y83.800 E4.22962
G1 X90.186 Y83.800 E4.36771
G1 X90.646 Y83.800 F8400.000
G1 F6720
G1 X90.246 Y90.200 E2.19620
G1 F6720
G1 X88.246 Y90.200 E1.51771
G1 E1.36771 F2400.00000
G92 E0
G1 Z0.900 F8400.000
G1 X100.413 Y100.000 F8400.000
G1 Z0.700 F8400.000
G1 E3.00000 F2400.00000
G1 X89.099 Y108.228 E3.39915 F1800.000
G1 X88.171 Y107.934 E3.42693
G1 X86.337 Y107.242 E3.48287
G1 X84.677 Y106.450 E3.53534
G1 X83.218 Y105.568 E3.58399
G1 X81.978 Y104.603 E3.62880
G1 X80.977 Y103.564 E3.66997
G1 X80.282 Y102.550 E3.70504
G1 X79.866 Y101.630 E3.73384
G1 X79.647 Y100.768 E3.75922
G1 X79.586 Y99.932 E3.78312
G1 X79.672 Y99.094 E3.80716
G1 X79.919 Y98.225 E3.83294
G1 X80.374 Y97.293 E3.86254
G1 X81.126 Y96.259 E3.89901
G1 X82.168 Y95.232 E3.94077
G1 X83.445 Y94.280 E3.98621
G1 X84.939 Y93.413 E4.03550
G1 X86.631 Y92.636 E4.08862
G1 X88.684 Y91.900 E4.15085
G1 X89.105 Y91.776 E4.16337
G1 X100.364 Y99.965 E4.56059
G1 X99.806 Y100.000 F8400.000
G1 X89.035 Y107.833 E4.94058 F1800.000
G1 X88.288 Y107.596 E4.96294
G1 X86.477 Y106.913 E5.01817
G1 X84.846 Y106.135 E5.06971
G1 X83.420 Y105.273 E5.11725
G1 X82.217 Y104.337 E5.16075
G1 X81.255 Y103.338 E5.20033
G1 X80.595 Y102.374 E5.23366
G1 X80.205 Y101.511 E5.26067
G1 X80.001 Y100.710 E5.28425
G1 X79.944 Y99.937 E5.30636
G1 X80.024 Y99.162 E5.32860
G1 X80.254 Y98.353 E5.35259
G1 X80.681 Y97.477 E5.38039
G1 X81.397 Y96.493 E5.41513
G1 X82.401 Y95.503 E5.45535
G1 X83.642 Y94.579 E5.49951
G1 X85.103 Y93.730 E5.54773
G1 X86.766 Y92.967 E5.59992
G1 X88.794 Y92.239 E5.66140
G1 X89.037 Y92.168 E5.66862
G1 X99.757 Y99.965 E6.04682
G1 X100.073 Y100.297 F8400.000
G1 F6720
G1 X92.985 Y104.934 E3.19682
G1 E3.04682 F2400.00000
G92 E0
G1 Z0.900 F8400.000
G1 X90.603 Y109.443 F8400.000
G1 Z0.700 F8400.000
G1 E3.00000 F2400.00000
G1 X90.603 Y116.557 E3.20298 F1800.000
G1 X84.989 Y116.557 E3.36316
G1 X84.989 Y109.443 E3.56614
G1 X90.543 Y109.443 E3.72461
G1 X90.246 Y109.800 F8400.000
G1 X90.246 Y116.200 E3.90721 F1800.000
G1 X85.346 Y116.200 E4.04702
G1 X85.346 Y109.800 E4.22962
G1 X90.186 Y109.800 E4.36771
G1 X90.646 Y109.800 F8400.000
G1 F6720
G1 X90.246 Y116.200 E2.19620
G1 F6720
G1 X88.246 Y116.200 E1.51771
G1 E1.36771 F2400.00000
G92 E0
G1 Z0.900 F8400.000
G1 X96.489 Y113.443 F8400.000
G1 Z0.700 F8400.000
G1 E3.00000 F2400.00000
G1 X106.603 Y113.443 E3.28857 F1800.000
G1 X106.603 Y116.557 E3.37743
G1 X96.489 Y116.557 E3.66600
G1 X96.489 Y113.503 E3.75314
G1 X96.846 Y113.800 F8400.000
G1 X106.246 Y113.800 E4.02134 F1800.000
G1 X106.246 Y116.200 E4.08981
G1 X96.846 Y116.200 E4.35801
G1 X96.846 Y113.860 E4.42478
G1 X96.846 Y113.400 F8400.000
G1 F6720
G1 X105.245 Y113.806 E1.57478
G1 E1.42478 F2400.00000
G92 E0
G1 Z0.900 F8400.000
G1 X102.678 Y100.000 F8400.000
G1 Z0.700 F8400.000
G1 E3.00000 F2400.00000
G1 X113.106 Y92.416 E3.36788 F1800.000
G1 X114.011 Y92.784 E3.39575
G1 X115.659 Y93.576 E3.44793
G1 X117.112 Y94.461 E3.49646
G1 X118.345 Y95.428 E3.54116
G1 X119.338 Y96.469 E3.58222
G1 X120.023 Y97.480 E3.61705
G1 X120.432 Y98.397 E3.64571
G1 X120.646 Y99.258 E3.67101
G1 X120.703 Y100.093 E3.69490
G1 X120.612 Y100.931 E3.71896
G1 X120.359 Y101.802 E3.74483
G1 X119.897 Y102.737 E3.77458
G1 X119.134 Y103.774 E3.81133
G1 X118.084 Y104.800 E3.85320
G1 X116.800 Y105.749 E3.89876
G1 X115.298 Y106.614 E3.94823
G1 X113.116 Y107.591 E4.01642
G1 X102.727 Y100.035 E4.38296
G1 X103.286 Y100.000 F8400.000
G1 X113.156 Y92.822 E4.73117 F1800.000
G1 X113.866 Y93.110 E4.75306
G1 X115.489 Y93.890 E4.80441
G1 X116.908 Y94.755 E4.85184
G1 X118.104 Y95.693 E4.89521
G1 X119.059 Y96.694 E4.93468
G1 X119.709 Y97.654 E4.96776
G1 X120.093 Y98.514 E4.99462
G1 X120.292 Y99.313 E5.01813
G1 X120.344 Y100.086 E5.04023
G1 X120.261 Y100.862 E5.06250
G1 X120.025 Y101.672 E5.08656
G1 X119.591 Y102.551 E5.11453
G1 X118.864 Y103.539 E5.14955
G1 X117.852 Y104.527 E5.18988
G1 X116.604 Y105.449 E5.23417
G1 X115.135 Y106.296 E5.28253
G1 X113.159 Y107.181 E5.34431
G1 X103.334 Y100.035 E5.69094
G1 X103.018 Y99.703 F8400.000
G1 F6720
G1 X110.104 Y95.063 E2.84094
G1 E2.69094 F2400.00000
G92 E0
G1 Z0.900 F8400.000
G1 X112.489 Y90.557 F8400.000
G1 Z0.700 F8400.000
G1 E3.00000 F2400.00000
G1 X112.489 Y83.443 E3.20298 F1800.000
G1 X118.103 Y83.443 E3.36316
G1 X118.103 Y90.557 E3.56614
G1 X112.549 Y90.557 E3.72461
G1 X112.846 Y90.200 F8400.000
G1 X112.846 Y83.800 E3.90721 F1800.000
G1 X117.746 Y83.800 E4.04702
G1 X117.746 Y90.200 E4.22962
G1 X112.906 Y90.200 E4.36771
G1 X112.446 Y90.200 F8400.000
G1 F6720
G1 X112.846 Y83.800 E2.19620
G1 F6720
G1 X114.845 Y83.800 E1.51771
G1 E1.36771 F2400.00000
G92 E0
G1 Z0.900 F8400.000
G1 X122.889 Y95.343 F8400.000
G1 Z0.700 F8400.000
G1 E3.00000 F2400.00000
G1 X122.889 Y104.657 E3.26575 F1800.000
G1 X128.989 Y104.657 E3.43979
G1 X128.989 Y108.478 E3.54881
G1 X128.868 Y109.995 E3.59222
G1 X128.528 Y111.408 E3.63370
G1 X127.958 Y112.786 E3.67623
G1 X127.184 Y114.049 E3.71852
G1 X126.222 Y115.176 E3.76079
G1 X125.095 Y116.138 E3.80306
G1 X123.832 Y116.912 E3.84533
G1 X122.463 Y117.479 E3.88760
G1 X121.023 Y117.825 E3.92987
G1 X119.524 Y117.943 E3.97277
G1 X78.568 Y117.943 E5.14133
G1 X77.851 Y117.887 E5.16184
G1 X77.173 Y117.724 E5.18172
G1 X76.529 Y117.457 E5.20160
G1 X75.935 Y117.093 E5.22149
G1 X75.405 Y116.640 E5.24137
G1 X74.953 Y116.110 E5.26126
G1 X74.588 Y115.516 E5.28114
G1 X74.322 Y114.872 E5.30102
G1 X74.159 Y114.195 E5.32091
G1 X74.103 Y113.478 E5.34142
G1 X74.103 Y103.354 E5.63027
G1 X74.234 Y103.339 E5.63404
G1 X74.790 Y103.174 E5.65059
G1 X75.310 Y102.917 E5.66715
G1 X75.779 Y102.575 E5.68370
G1 X76.184 Y102.159 E5.70026
G1 X76.512 Y101.680 E5.71684
G1 X76.757 Y101.143 E5.73367
G1 X76.903 Y100.592 E5.74992
G1 X76.955 Y100.014 E5.76648
G1 X76.908 Y99.436 E5.78303
G1 X76.763 Y98.874 E5.79959
G1 X76.526 Y98.345 E5.81614
G1 X76.202 Y97.863 E5.83270
G1 X75.801 Y97.444 E5.84925
G1 X75.335 Y97.098 E5.86581
G1 X74.817 Y96.837 E5.88236
G1 X74.262 Y96.667 E5.89892
G1 X74.103 Y96.647 E5.90350
G1 X74.103 Y86.522 E6.19238
G1 X74.159 Y85.805 E6.21289
G1 X74.322 Y85.128 E6.23278
G1 X74.588 Y84.484 E6.25266
G1 X74.914 Y83.953 E6.27042
G1 X75.408 Y83.357 E6.29252
G1 X75.935 Y82.907 E6.31229
G1 X76.529 Y82.543 E6.33217
G1 X77.173 Y82.276 E6.35206
G1 X77.851 Y82.113 E6.37194
G1 X78.568 Y82.057 E6.39245
G1 X119.524 Y82.057 E7.56101
G1 X121.023 Y82.175 E7.60391
G1 X122.463 Y82.521 E7.64618
G1 X123.832 Y83.088 E7.68845
G1 X125.095 Y83.862 E7.73072
G1 X126.222 Y84.824 E7.77299
G1 X127.184 Y85.951 E7.81526
G1 X127.958 Y87.214 E7.85752
G1 X128.528 Y88.594 E7.90014
G1 X128.871 Y90.023 E7.94206
G1 X128.989 Y91.522 E7.98496
G1 X128.989 Y95.343 E8.09398
G1 X122.949 Y95.343 E8.26632
G1 F6720
G1 X122.894 Y103.743 E5.41632
G1 E5.26632 F2400.00000
G92 E0
G1 Z0.900 F8400.000
G1 X73.746 Y96.961 F8400.000
G1 Z0.700 F8400.000
G1 E3.00000 F2400.00000
G1 X73.746 Y86.508 E3.29826 F1800.000
G1 X73.805 Y85.749 E3.31997
G1 X73.981 Y85.017 E3.34146
G1 X74.269 Y84.321 E3.36294
G1 X74.623 Y83.745 E3.38223
G1 X75.153 Y83.105 E3.40594
G1 X75.725 Y82.617 E3.42738
G1 X76.367 Y82.224 E3.44887
G1 X77.063 Y81.935 E3.47036
G1 X77.795 Y81.760 E3.49185
G1 X78.553 Y81.700 E3.51356
G1 X119.538 Y81.700 E4.68292
G1 X121.079 Y81.821 E4.72702
G1 X122.574 Y82.180 E4.77089
G1 X123.994 Y82.769 E4.81476
G1 X125.306 Y83.572 E4.85864
G1 X126.475 Y84.571 E4.90251
G1 X127.474 Y85.740 E4.94638
G1 X128.277 Y87.051 E4.99026
G1 X128.869 Y88.483 E5.03448
G1 X129.224 Y89.967 E5.07800
G1 X129.346 Y91.508 E5.12210
G1 X129.346 Y108.492 E5.60669
G1 X129.221 Y110.051 E5.65131
G1 X128.869 Y111.517 E5.69434
G1 X128.277 Y112.949 E5.73853
G1 X127.474 Y114.260 E5.78241
G1 X126.475 Y115.429 E5.82629
G1 X125.306 Y116.428 E5.87016
G1 X123.994 Y117.231 E5.91403
G1 X122.574 Y117.820 E5.95791
G1 X121.079 Y118.179 E6.00178
G1 X119.538 Y118.300 E6.04588
G1 X78.553 Y118.300 E7.21524
G1 X77.795 Y118.240 E7.23695
G1 X77.063 Y118.064 E7.25844
G1 X76.367 Y117.776 E7.27993
G1 X75.725 Y117.383 E7.30141
G1 X75.152 Y116.894 E7.32290
G1 X74.663 Y116.321 E7.34439
G1 X74.269 Y115.679 E7.36588
G1 X73.981 Y114.983 E7.38737
G1 X73.805 Y114.251 E7.40885
G1 X73.746 Y113.492 E7.43057
G1 X73.746 Y103.037 E7.72886
G1 X74.162 Y102.988 E7.74082
G1 X74.659 Y102.840 E7.75563
G1 X75.125 Y102.610 E7.77045
G1 X75.545 Y102.305 E7.78526
G1 X75.906 Y101.932 E7.80008
G1 X76.200 Y101.503 E7.81490
G1 X76.419 Y101.022 E7.82999
